;FLAVOR:Marlin
;TIME:8041
;Filament used: 4.20787m
;Layer height: 0.21875
;MINX:41.421
;MINY:1.816
;MINZ:0.263
;MAXX:111.886
;MAXY:113.146
;MAXZ:5.957
;Generated with Cura_SteamEngine 4.5.0
M140 S60
M105
M190 S60
M104 S210
M105
M109 S210
M82 ;absolute extrusion mode
G21;(metric values)
G90;(absolute positioning)
M82;(set extruder to absolute mode)
M107;(start with the fan off)
G28;(Home the printer)
G92 E0;(Reset the extruder to 0)
G0 Z5 E5 F500;(Move up and prime the nozzle)
G0 X-1 Z0;(Move outside the printable area)
G1 Y60 E8 F500;(Draw a priming/wiping line to the rear)
G1 X-1;(Move a little closer to the print area)
G1 Y10 E16 F500;(draw more priming/wiping)
G1 E15 F250;(Small retract)
G92 E0;(Zero the extruder)
G92 E0
G92 E0
G1 F2400 E-2.5
;LAYER_COUNT:27
;LAYER:0
M107
;MESH:body_top.STL
G0 F4320 X42.688 Y5.981 Z0.263
;TYPE:WALL-INNER
G1 F2400 E0
G1 F1080 X42.805 Y6.659 E0.02633
G1 X43.139 Y7.258 E0.05258
G1 X43.656 Y7.713 E0.07893
G1 X44.293 Y7.968 E0.10519
G1 X44.98 Y7.997 E0.13151
G1 X45.635 Y7.796 E0.15773
G1 X46.189 Y7.387 E0.18408
G1 X46.573 Y6.819 E0.21032
G1 X46.747 Y6.154 E0.23663
G1 X46.688 Y5.469 E0.26294
G1 X46.405 Y4.842 E0.28926
G1 X45.93 Y4.347 E0.31552
G1 X45.315 Y4.038 E0.34186
G1 X44.634 Y3.951 E0.36813
G1 X43.963 Y4.096 E0.3944
G1 X43.397 Y4.443 E0.41981
G1 X43.128 Y4.725 E0.43473
G1 X42.808 Y5.298 E0.45984
G0 F972 X42.805 Y5.304
G0 X42.688 Y5.981
G1 F2400 E-2.04016
G0 F4320 X43.227 Y7.188
G0 X45.002 Y8.164
G0 X44.824 Y6.801
G0 X65.579 Y31.072
G0 X64.229 Y29.889
G0 X64.399 Y33.249
G1 F2400 E0.45984
G1 F1080 X64.596 Y33.223 E0.46745
G1 X89.261 Y29.966 E1.41957
G1 X89.261 Y28.878 E1.46121
G1 X88.05 Y28.267 E1.51312
G1 X70.677 Y19.526 E2.25739
G1 X70.367 Y19.37 E2.27067
G1 X70.678 Y19.214 E2.27803
G1 X89.261 Y9.885 E3.07379
G1 X89.261 Y8.792 E3.11562
G1 X87.643 Y8.578 E3.17808
G1 X64.596 Y5.517 E4.06783
G1 X64.399 Y5.491 E4.07543
G1 X64.399 Y5.689 E4.08016
G1 X64.399 Y5.69 E4.0802
G1 X64.399 Y8.696 E4.19524
G1 X79.736 Y10.737 E4.78736
G1 X80.299 Y10.811 E4.80909
G1 X79.792 Y11.065 E4.82041
G1 X64.399 Y18.788 E5.47949
G1 X64.399 Y19.917 E5.52269
G1 X79.831 Y27.671 E6.18363
G1 X80.338 Y27.926 E6.20535
G1 X79.775 Y28 E6.21669
G1 X64.399 Y30.038 E6.81027
G1 X64.399 Y33.05 E6.92554
G1 X64.399 Y33.051 E6.92558
G1 X64.399 Y33.249 E6.93031
G1 F2400 E4.43031
G0 F4320 X67.773 Y32.95
G0 X67.598 Y31.627
G0 X69.235 Y45.947
G0 X68.522 Y44.79
G0 X66.063 Y46.797
G1 F2400 E6.93031
G1 F1080 X66.189 Y46.94 E6.9376
G1 X69.414 Y50.582 E7.12377
G1 X71.107 Y49.327 E7.20442
G1 X72.575 Y48.571 E7.26761
G1 X74.156 Y48.078 E7.33099
G1 X75.786 Y47.865 E7.3939
G1 X77.447 Y47.932 E7.45752
G1 X79.06 Y48.281 E7.52068
G1 X80.584 Y48.899 E7.58361
G1 X81.995 Y49.779 E7.64726
G1 X83.223 Y50.874 E7.71022
G1 X84.252 Y52.174 E7.77367
G1 X85.041 Y53.624 E7.83685
G1 X85.57 Y55.185 E7.89992
G1 X85.825 Y56.823 E7.96336
G1 X85.797 Y58.478 E8.02671
G1 X85.489 Y60.092 E8.08959
G1 X84.903 Y61.642 E8.15301
G1 X84.063 Y63.065 E8.21625
G1 X82.996 Y64.321 E8.27932
G1 X81.259 Y65.763 E8.36571
G1 X84.008 Y69.775 E8.55184
G1 X84.115 Y69.931 E8.55908
G1 X84.262 Y69.811 E8.56367
G1 X86.389 Y68.068 E8.66891
G1 X88.048 Y66.176 E8.76521
G1 X89.016 Y64.599 E8.83602
G1 X89.417 Y63.929 E8.8659
G1 X90.286 Y61.679 E8.95821
G1 X90.795 Y59.214 E9.05454
G1 X90.877 Y56.696 E9.15095
G1 X90.53 Y54.201 E9.24735
G1 X89.757 Y51.805 E9.3437
G1 X89.101 Y50.535 E9.39841
G1 X88.532 Y49.473 E9.44451
G1 X87.05 Y47.573 E9.53673
G1 X85.198 Y45.867 E9.6331
G1 X83.079 Y44.504 E9.72952
G1 X80.761 Y43.525 E9.82581
G1 X79.728 Y43.272 E9.86652
G1 X78.195 Y42.928 E9.92664
G1 X75.786 Y42.81 E10.01894
G1 X73.29 Y43.098 E10.1151
G1 X72.687 Y43.262 E10.13902
G1 X70.763 Y43.847 E10.21597
G1 X68.609 Y44.931 E10.30826
G1 X66.217 Y46.685 E10.42177
G1 X66.063 Y46.797 E10.42637
G1 F2400 E7.92637
G0 F4320 X69.431 Y50.418
G0 X72.635 Y48.726
G0 X73.555 Y50.696
G0 X75.977 Y50.474
G0 X77.164 Y50.534
G0 X78.324 Y50.793
G0 X79.425 Y51.245
G0 X80.434 Y51.876
G0 X81.321 Y52.669
G0 X82.06 Y53.6
G0 X83.128 Y55.738
G1 F2400 E10.42637
G1 F1080 X82.733 Y54.597 E10.47258
G1 X82.153 Y53.539 E10.51875
G1 X81.401 Y52.592 E10.56503
G1 X80.501 Y51.786 E10.61126
G1 X79.476 Y51.146 E10.65751
G1 X78.358 Y50.688 E10.70375
G1 X77.179 Y50.424 E10.74998
G1 X75.973 Y50.363 E10.7962
G1 X74.773 Y50.507 E10.84245
G1 X73.616 Y50.851 E10.88864
G1 X72.533 Y51.387 E10.93489
G1 X71.556 Y52.099 E10.98115
G1 X70.714 Y52.965 E11.02738
G1 X70.029 Y53.961 E11.07364
G1 X69.523 Y55.058 E11.11987
G1 X69.21 Y56.225 E11.16611
G1 X69.099 Y57.426 E11.21227
G1 X69.191 Y58.632 E11.25856
G1 X69.487 Y59.803 E11.30478
G1 X69.976 Y60.908 E11.35103
G1 X70.646 Y61.914 E11.39728
G1 X71.475 Y62.793 E11.44352
G1 X72.441 Y63.518 E11.48974
G1 X73.515 Y64.071 E11.53597
G1 X74.668 Y64.432 E11.58221
G1 X75.866 Y64.595 E11.62848
G1 X77.072 Y64.554 E11.67466
G1 X78.255 Y64.308 E11.7209
G1 X79.38 Y63.866 E11.76716
G1 X80.413 Y63.241 E11.81337
G1 X81.326 Y62.448 E11.85965
G1 X82.091 Y61.515 E11.90582
G1 X82.688 Y60.465 E11.95205
G1 X83.1 Y59.329 E11.99829
G1 X83.313 Y58.139 E12.04456
G1 X83.322 Y56.932 E12.09075
G1 X83.239 Y56.423 E12.11049
G0 F972 X83.128 Y55.738
G1 F2400 E9.61049
G0 F4320 X83.26 Y59.372
G0 X81.948 Y59.015
G0 X82.264 Y72.947
G0 X83.004 Y71.27
G0 X84.933 Y76.109
G1 F2400 E12.11049
G1 F1080 X84.858 Y75.936 E12.1177
G1 X82.911 Y71.482 E12.30373
G1 X80.046 Y72.455 E12.41952
G1 X78.095 Y72.785 E12.49525
G1 X77.358 Y72.903 E12.52381
G1 X74.853 Y72.875 E12.61969
G1 X74.354 Y72.804 E12.63898
G1 X72.166 Y72.403 E12.7241
G1 X69.824 Y71.55 E12.81949
G1 X67.548 Y70.273 E12.91937
G1 X65.515 Y68.627 E13.01947
G1 X65.192 Y68.281 E13.03759
G1 X63.715 Y66.575 E13.12395
G1 X62.427 Y64.446 E13.21917
G1 X61.447 Y62.01 E13.31966
G1 X60.871 Y59.351 E13.42378
G1 X60.782 Y56.851 E13.51952
G1 X60.96 Y55.353 E13.57725
G1 X61.121 Y54.148 E13.62377
G1 X61.863 Y51.766 E13.71925
G1 X63.033 Y49.426 E13.81937
G1 X64.962 Y46.805 E13.94392
G1 X61.323 Y43.58 E14.13
G1 X61.183 Y43.456 E14.13716
G1 X61.07 Y43.605 E14.14169
G1 X58.999 Y46.331 E14.27271
G1 X57.587 Y48.921 E14.3856
G1 X56.515 Y51.809 E14.50349
G1 X55.888 Y54.825 E14.62138
G1 X55.718 Y57.903 E14.73936
G1 X56.012 Y60.97 E14.85727
G1 X56.764 Y63.959 E14.97522
G1 X57.955 Y66.802 E15.09319
G1 X59.554 Y69.429 E15.21088
G1 X60.026 Y70.016 E15.23971
G1 X61.625 Y71.9 E15.33427
G1 X63.951 Y73.925 E15.4523
G1 X66.554 Y75.577 E15.57028
G1 X69.252 Y76.768 E15.68315
G1 X72.219 Y77.595 E15.80102
G1 X75.28 Y77.966 E15.91902
G1 X78.36 Y77.877 E16.03695
G1 X81.392 Y77.326 E16.15488
G1 X84.755 Y76.17 E16.29097
G1 X84.933 Y76.109 E16.29553
G1 F2400 E13.79553
G0 F4320 X81.434 Y77.487
G0 X81.092 Y76.172
G0 X76.35 Y88.645
G0 X76.359 Y87.288
G0 X72.462 Y88.04
G0 X70.709 Y88.658
G0 X68.978 Y89.604
G0 X67.633 Y90.63
G0 X66.488 Y91.846
G0 X65.598 Y93.2
G0 X65.04 Y94.471
G0 X64.556 Y96.377
G0 X64.307 Y98.627
G0 X64.142 Y108.037
G1 F2400 E16.29553
G1 F1080 X64.317 Y108.037 E16.30223
G1 X89.004 Y108.037 E17.247
G1 X89.004 Y102.907 E17.44332
G1 X88.9 Y99.45 E17.57568
G1 X88.647 Y97.118 E17.66545
G1 X88.142 Y95.069 E17.74621
G1 X87.372 Y93.326 E17.81914
G1 X86.482 Y91.954 E17.88172
G1 X85.293 Y90.661 E17.94895
G1 X83.891 Y89.565 E18.01705
G1 X82.215 Y88.637 E18.09037
G1 X80.371 Y87.977 E18.16532
G1 X78.338 Y87.577 E18.24462
G1 X76.358 Y87.453 E18.32054
G1 X74.408 Y87.558 E18.39527
G1 X72.433 Y87.932 E18.4722
G1 X70.664 Y88.556 E18.54399
G1 X68.918 Y89.511 E18.62015
G1 X67.559 Y90.547 E18.68555
G1 X66.401 Y91.777 E18.7502
G1 X65.5 Y93.147 E18.81295
G1 X64.935 Y94.435 E18.86678
G1 X64.447 Y96.357 E18.94266
G1 X64.295 Y97.669 E18.99321
G1 X64.168 Y98.871 E19.03947
G1 X64.144 Y100.072 E19.08544
G1 X64.142 Y107.862 E19.38356
G1 X64.142 Y108.037 E19.38789
G1 F2400 E16.88789
G0 F4320 X63.997 Y106.235
G0 X65.333 Y106.235
G0 X45.545 Y108.911
G0 X46.915 Y108.794
G0 X46.747 Y108.809
G1 F2400 E19.38789
G1 F1080 X46.573 Y108.144 E19.4142
G1 X46.189 Y107.576 E19.44044
G1 X45.635 Y107.167 E19.46679
G1 X44.98 Y106.966 E19.49301
G1 X44.293 Y106.995 E19.51933
G1 X43.656 Y107.25 E19.54559
G1 X43.139 Y107.705 E19.57194
G1 X42.816 Y108.285 E19.59735
G1 X42.718 Y108.66 E19.61218
G1 X42.718 Y109.325 E19.63763
G1 X42.947 Y109.973 E19.66393
G1 X43.378 Y110.506 E19.69017
G1 X43.963 Y110.867 E19.71647
G1 X44.634 Y111.012 E19.74275
G1 X45.316 Y110.925 E19.76906
G1 X45.93 Y110.615 E19.79538
G1 X46.405 Y110.12 E19.82164
G1 X46.685 Y109.5 E19.84767
G0 F972 X46.688 Y109.493
G0 X46.747 Y108.809
G1 F2400 E17.34767
G0 F4320 X46.312 Y110.056
G0 X45.282 Y110.818
G0 X43.267 Y110.632
G0 X43.267 Y111.771
G0 X41.746 Y111.956
G1 F2400 E19.84767
G1 F1080 X41.746 Y3.006 E24.01718
G1 X110.696 Y3.006 E26.65589
G1 X110.696 Y111.956 E30.8254
G1 X42.44 Y111.956 E33.43756
G0 F972 X41.746 Y111.956
G1 F2400 E30.93756
G0 F4320 X109.747 Y111.771
G0 X109.031 Y110.75
G0 X109.474 Y109.71
G0 X109.747 Y108.809
G1 F2400 E33.43756
G1 F1080 X109.573 Y108.144 E33.46386
G1 X109.189 Y107.576 E33.4901
G1 X108.635 Y107.167 E33.51646
G1 X107.98 Y106.966 E33.54268
G1 X107.293 Y106.995 E33.56899
G1 X106.656 Y107.25 E33.59525
G1 X106.139 Y107.705 E33.62161
G1 X105.816 Y108.285 E33.64701
G1 X105.718 Y108.66 E33.66185
G1 X105.718 Y109.325 E33.6873
G1 X105.947 Y109.973 E33.7136
G1 X106.378 Y110.506 E33.73983
G1 X106.963 Y110.867 E33.76614
G1 X107.634 Y111.012 E33.79241
G1 X108.316 Y110.925 E33.81872
G1 X108.93 Y110.615 E33.84504
G1 X109.405 Y110.12 E33.8713
G1 X109.685 Y109.5 E33.89733
G0 F972 X109.688 Y109.493
G0 X109.747 Y108.809
G1 F2400 E31.39733
G0 F4320 X108.711 Y107.016
G0 X108.095 Y108.244
G0 X107.287 Y6.685
G0 X106.568 Y7.856
G0 X106.037 Y6.857
G0 X105.688 Y5.981
G1 F2400 E33.89733
G1 F1080 X105.805 Y6.659 E33.92366
G1 X106.139 Y7.258 E33.94991
G1 X106.656 Y7.713 E33.97627
G1 X107.293 Y7.968 E34.00253
G1 X107.98 Y7.997 E34.02884
G1 X108.635 Y7.796 E34.05506
G1 X109.189 Y7.387 E34.08141
G1 X109.573 Y6.819 E34.10765
G1 X109.747 Y6.154 E34.13396
G1 X109.688 Y5.469 E34.16027
G1 X109.405 Y4.842 E34.1866
G1 X108.93 Y4.347 E34.21285
G1 X108.315 Y4.038 E34.23919
G1 X107.634 Y3.951 E34.26547
G1 X106.963 Y4.096 E34.29174
G1 X106.397 Y4.443 E34.31714
G1 X106.128 Y4.725 E34.33206
G1 X105.808 Y5.298 E34.35718
G0 F972 X105.805 Y5.304
G0 X105.688 Y5.981
G0 F4320 X106.018 Y5.981
;TYPE:WALL-OUTER
G1 F1080 X106.116 Y6.549 E34.37923
G1 X106.396 Y7.051 E34.40123
G1 X106.829 Y7.432 E34.42331
G1 X107.362 Y7.646 E34.44529
G1 X107.938 Y7.67 E34.46735
G1 X108.487 Y7.502 E34.48932
G1 X108.951 Y7.159 E34.5114
G1 X109.273 Y6.683 E34.5334
G1 X109.418 Y6.126 E34.55542
G1 X109.369 Y5.552 E34.57747
G1 X109.132 Y5.027 E34.59951
G1 X108.734 Y4.612 E34.62152
G1 X108.219 Y4.353 E34.64358
G1 X107.648 Y4.28 E34.66561
G1 X107.086 Y4.402 E34.68762
G1 X106.603 Y4.698 E34.7093
G1 X106.392 Y4.919 E34.72099
G1 X106.174 Y5.31 E34.73812
G0 F972 X106.116 Y5.414
G0 X106.018 Y5.981
G0 F4320 X106.052 Y6.178
G1 F2400 E32.23812
G0 F4320 X105.781 Y6.223
G0 X106.008 Y7.364
G0 X107.078 Y6.501
G0 X87.085 Y29.082
G0 X88.125 Y28.119
G0 X89.145 Y28.95
G0 X89.141 Y29.86
G0 X64.523 Y33.108
G0 X64.724 Y32.878
G1 F2400 E34.73812
G1 F1080 X64.921 Y32.852 E34.74573
G1 X88.936 Y29.681 E35.67276
G1 X88.936 Y29.078 E35.69583
G1 X87.904 Y28.557 E35.74008
G1 X69.954 Y19.526 E36.50907
G1 X69.644 Y19.37 E36.52235
G1 X69.955 Y19.214 E36.52971
G1 X88.936 Y9.685 E37.34251
G1 X88.936 Y9.077 E37.36578
G1 X87.6 Y8.9 E37.41735
G1 X64.921 Y5.888 E38.2929
G1 X64.724 Y5.862 E38.3005
G1 X64.724 Y6.06 E38.30523
G1 X64.724 Y6.061 E38.30526
G1 X64.724 Y8.411 E38.3952
G1 X80.825 Y10.554 E39.01682
G1 X81.388 Y10.628 E39.03855
G1 X80.881 Y10.882 E39.04987
G1 X64.724 Y18.989 E39.74167
G1 X64.724 Y19.717 E39.76953
G1 X80.919 Y27.855 E40.46316
G1 X81.426 Y28.11 E40.48488
G1 X80.863 Y28.184 E40.49621
G1 X64.724 Y30.323 E41.11925
G1 X64.724 Y32.679 E41.20942
G1 X64.724 Y32.68 E41.20946
G1 X64.724 Y32.878 E41.21418
G0 F4320 X64.921 Y32.852
G0 X64.922 Y32.852
G1 F2400 E38.71418
G0 F4320 X64.956 Y33.125
G0 X65.575 Y31.907
G0 X69.235 Y45.947
G0 X68.522 Y44.79
G0 X66.246 Y46.816
G0 X66.543 Y46.848
G1 F2400 E41.21418
G1 F1080 X66.669 Y46.991 E41.22148
G1 X69.46 Y50.143 E41.3826
G1 X70.934 Y49.05 E41.45282
G1 X72.45 Y48.27 E41.51807
G1 X74.086 Y47.76 E41.58365
G1 X75.774 Y47.539 E41.6488
G1 X77.489 Y47.608 E41.71449
G1 X79.153 Y47.968 E41.77964
G1 X80.734 Y48.61 E41.84494
G1 X82.19 Y49.517 E41.91059
G1 X83.461 Y50.651 E41.97578
G1 X84.521 Y51.99 E42.04114
G1 X85.341 Y53.497 E42.10679
G1 X85.886 Y55.106 E42.17181
G1 X86.15 Y56.801 E42.23746
G1 X86.122 Y58.51 E42.30287
G1 X85.802 Y60.182 E42.36802
G1 X85.197 Y61.783 E42.43352
G1 X84.329 Y63.254 E42.49888
G1 X83.224 Y64.554 E42.56418
G1 X81.695 Y65.824 E42.64024
G1 X84.076 Y69.299 E42.80145
G1 X84.077 Y69.3 E42.80151
G1 X84.183 Y69.455 E42.80869
G1 X84.329 Y69.335 E42.81326
G1 X86.162 Y67.834 E42.90393
G1 X87.785 Y65.982 E42.99817
G1 X88.738 Y64.43 E43.06787
G1 X89.124 Y63.786 E43.0966
G1 X89.973 Y61.587 E43.18681
G1 X90.471 Y59.176 E43.28103
G1 X90.551 Y56.713 E43.37534
G1 X90.212 Y54.274 E43.46958
G1 X89.456 Y51.93 E43.56383
G1 X88.813 Y50.686 E43.61742
G1 X88.259 Y49.651 E43.66235
G1 X86.81 Y47.794 E43.75249
G1 X84.998 Y46.125 E43.84677
G1 X82.927 Y44.792 E43.94103
G1 X80.658 Y43.834 E44.03528
G1 X79.654 Y43.588 E44.07484
G1 X78.151 Y43.251 E44.13379
G1 X75.797 Y43.136 E44.22398
G1 X73.352 Y43.418 E44.31818
G1 X72.777 Y43.574 E44.34098
G1 X70.884 Y44.15 E44.4167
G1 X68.779 Y45.209 E44.50688
G1 X66.697 Y46.736 E44.60569
G1 X66.543 Y46.848 E44.61028
G0 F4320 X66.669 Y46.991
G0 X66.675 Y46.998
G1 F2400 E42.11028
G0 F4320 X66.47 Y47.179
G0 X69.431 Y50.418
G0 X72.635 Y48.726
G0 X73.555 Y50.696
G0 X75.977 Y50.474
G0 X77.164 Y50.534
G0 X78.324 Y50.793
G0 X79.425 Y51.245
G0 X80.434 Y51.876
G0 X81.321 Y52.669
G0 X82.06 Y53.6
G0 X82.522 Y54.443
G0 X83.083 Y55.775
G0 X82.812 Y55.818
G1 F2400 E44.61028
G1 F1080 X82.435 Y54.729 E44.65439
G1 X81.881 Y53.719 E44.69847
G1 X81.164 Y52.816 E44.7426
G1 X80.305 Y52.047 E44.78672
G1 X79.327 Y51.436 E44.83085
G1 X78.26 Y50.999 E44.87498
G1 X77.135 Y50.747 E44.9191
G1 X75.984 Y50.689 E44.9632
G1 X74.839 Y50.826 E45.00733
G1 X73.735 Y51.155 E45.05142
G1 X72.702 Y51.666 E45.09553
G1 X71.77 Y52.345 E45.13966
G1 X70.966 Y53.172 E45.1838
G1 X70.313 Y54.122 E45.22791
G1 X69.83 Y55.169 E45.27204
G1 X69.531 Y56.283 E45.31618
G1 X69.425 Y57.429 E45.36023
G1 X69.513 Y58.579 E45.40437
G1 X69.795 Y59.697 E45.44849
G1 X70.262 Y60.751 E45.49261
G1 X70.901 Y61.711 E45.53674
G1 X71.692 Y62.55 E45.58087
G1 X72.614 Y63.242 E45.62499
G1 X73.639 Y63.769 E45.6691
G1 X74.739 Y64.114 E45.71322
G1 X75.882 Y64.269 E45.75736
G1 X77.033 Y64.23 E45.80143
G1 X78.162 Y63.995 E45.84557
G1 X79.235 Y63.574 E45.88968
G1 X80.221 Y62.977 E45.93379
G1 X81.092 Y62.221 E45.97793
G1 X81.822 Y61.33 E46.02201
G1 X82.392 Y60.328 E46.06613
G1 X82.785 Y59.244 E46.11025
G1 X82.988 Y58.109 E46.15438
G1 X82.997 Y56.957 E46.19847
G1 X82.923 Y56.503 E46.21607
G0 F972 X82.812 Y55.818
G0 F4320 X82.747 Y55.629
G1 F2400 E43.71607
G0 F4320 X83.007 Y55.542
G0 X83.211 Y56.941
G0 X83.204 Y57.902
G0 X82.839 Y60.535
G0 X81.603 Y59.968
G0 X82.264 Y72.947
G0 X83.004 Y71.27
G0 X84.746 Y75.808
G0 X84.494 Y75.916
G1 F2400 E46.21607
G1 F1080 X84.419 Y75.743 E46.22329
G1 X82.733 Y71.886 E46.38438
G1 X80.129 Y72.77 E46.48962
G1 X78.147 Y73.105 E46.56655
G1 X77.383 Y73.228 E46.59616
G1 X74.826 Y73.2 E46.69402
G1 X74.303 Y73.125 E46.71424
G1 X72.084 Y72.719 E46.80057
G1 X69.688 Y71.846 E46.89817
G1 X67.363 Y70.541 E47.0002
G1 X65.29 Y68.863 E47.10227
G1 X64.954 Y68.503 E47.12111
