;FLAVOR:Marlin
;TIME:4726
;Filament used: 2.27321m
;Layer height: 0.21875
;MINX:24.547
;MINY:18.055
;MINZ:0.263
;MAXX:94.588
;MAXY:101.08
;MAXZ:1.796
;Generated with Cura_SteamEngine 4.5.0
M140 S60
M105
M190 S60
M104 S210
M105
M109 S210
M82 ;absolute extrusion mode
G21;(metric values)
G90;(absolute positioning)
M82;(set extruder to absolute mode)
M107;(start with the fan off)
G28;(Home the printer)
G92 E0;(Reset the extruder to 0)
G0 Z5 E5 F500;(Move up and prime the nozzle)
G0 X-1 Z0;(Move outside the printable area)
G1 Y60 E8 F500;(Draw a priming/wiping line to the rear)
G1 X-1;(Move a little closer to the print area)
G1 Y10 E16 F500;(draw more priming/wiping)
G1 E15 F250;(Small retract)
G92 E0;(Zero the extruder)
G92 E0
G92 E0
G1 F2400 E-2.5
;LAYER_COUNT:8
;LAYER:0
M107
;MESH:head_topv4.STL
G0 F4320 X35.218 Y21.58 Z0.263
;TYPE:WALL-INNER
G1 F2400 E0
G1 F1080 X34.546 Y21.726 E0.02632
G1 X33.961 Y22.087 E0.05262
G1 X33.53 Y22.62 E0.07886
G1 X33.301 Y23.268 E0.10516
G1 X33.301 Y23.955 E0.13145
G1 X33.53 Y24.603 E0.15775
G1 X33.961 Y25.137 E0.18401
G1 X34.546 Y25.498 E0.21032
G1 X35.218 Y25.642 E0.23662
G1 X35.899 Y25.555 E0.2629
G1 X36.513 Y25.246 E0.2892
G1 X36.988 Y24.751 E0.31546
G1 X37.267 Y24.135 E0.34134
G1 X37.334 Y23.612 E0.36152
G1 X37.267 Y23.089 E0.38169
G1 X36.988 Y22.473 E0.40757
G1 X36.513 Y21.978 E0.43383
G1 X35.906 Y21.671 E0.45986
G0 F972 X35.901 Y21.669
G0 X35.218 Y21.58
G1 F2400 E-2.04014
G0 F4320 X36.614 Y21.843
G0 X35.795 Y22.947
G0 X84.15 Y22.992
G0 X83.242 Y21.961
G0 X84.609 Y21.58
G1 F2400 E0.45986
G1 F1080 X83.937 Y21.726 E0.48618
G1 X83.353 Y22.087 E0.51245
G1 X82.921 Y22.62 E0.53871
G1 X82.692 Y23.268 E0.56501
G1 X82.692 Y23.955 E0.5913
G1 X82.921 Y24.603 E0.6176
G1 X83.353 Y25.137 E0.64389
G1 X83.937 Y25.498 E0.67017
G1 X84.609 Y25.642 E0.69647
G1 X85.29 Y25.555 E0.72274
G1 X85.905 Y25.246 E0.74908
G1 X86.379 Y24.751 E0.77531
G1 X86.658 Y24.135 E0.80119
G1 X86.726 Y23.612 E0.82137
G1 X86.658 Y23.089 E0.84156
G1 X86.379 Y22.473 E0.86744
G1 X85.905 Y21.978 E0.89366
G1 X85.297 Y21.672 E0.91971
G0 F972 X85.291 Y21.669
G0 X84.609 Y21.58
G1 F2400 E-1.58029
G0 F4320 X85.214 Y19.867
G0 X84.837 Y19.54
G1 F2400 E0.91971
G1 F1080 X85.772 Y19.91 E0.95819
G1 X86.634 Y20.418 E0.99649
G1 X87.438 Y21.079 E1.03632
G1 X88.076 Y21.804 E1.07328
G1 X88.616 Y22.643 E1.11146
G1 X89.025 Y23.564 E1.15003
G1 X89.287 Y24.538 E1.18863
G1 X89.451 Y25.43 E1.22334
G1 X94.087 Y51.721 E2.24501
G1 X94.253 Y53.468 E2.31217
G1 X94.263 Y53.964 E2.33116
G1 X94.263 Y60.649 E2.58699
G1 X94.141 Y62.174 E2.64554
G1 X93.766 Y63.722 E2.7065
G1 X93.348 Y64.958 E2.75643
G1 X82.535 Y96.363 E4.02754
G1 X82.152 Y97.247 E4.06441
G1 X81.609 Y98.125 E4.10392
G1 X80.974 Y98.858 E4.14103
G1 X80.163 Y99.55 E4.18183
G1 X79.367 Y100.03 E4.21741
G1 X78.436 Y100.42 E4.25604
G1 X77.47 Y100.66 E4.29413
G1 X76.453 Y100.749 E4.3332
G1 X74.739 Y100.755 E4.39879
G1 X43.61 Y100.755 E5.5901
G1 X42.646 Y100.681 E5.6271
G1 X41.684 Y100.459 E5.66488
G1 X40.758 Y100.093 E5.70299
G1 X39.896 Y99.586 E5.74126
G1 X39.116 Y98.947 E5.77985
G1 X38.446 Y98.196 E5.81836
G1 X37.915 Y97.369 E5.85598
G1 X37.494 Y96.428 E5.89543
G1 X37.138 Y95.409 E5.93674
G1 X26.343 Y64.062 E7.20553
G1 X25.897 Y62.384 E7.27197
G1 X25.747 Y60.796 E7.33301
G1 X25.737 Y53.564 E7.60978
G1 X25.875 Y51.98 E7.67063
G1 X26.05 Y50.946 E7.71077
G1 X30.69 Y24.628 E8.73349
G1 X30.932 Y23.686 E8.77071
G1 X31.319 Y22.764 E8.80898
G1 X31.855 Y21.892 E8.84815
G1 X32.494 Y21.15 E8.88562
G1 X33.279 Y20.479 E8.92514
G1 X34.111 Y19.969 E8.96249
G1 X35.038 Y19.581 E9.00095
G1 X36.004 Y19.341 E9.03904
G1 X37.026 Y19.252 E9.0783
G1 X37.592 Y19.245 E9.09996
G1 X82.873 Y19.245 E10.83287
G1 X83.856 Y19.317 E10.87059
G1 X84.161 Y19.387 E10.88256
G0 F972 X84.837 Y19.54
G1 F2400 E8.38256
G0 F4320 X85.692 Y20.077
G0 X86.389 Y18.893
G0 X78.168 Y95.978
G0 X78.109 Y94.604
G0 X78.8 Y94.86
G1 F2400 E10.88256
G1 F1080 X78.117 Y94.773 E10.90891
G1 X77.445 Y94.918 E10.93522
G1 X76.86 Y95.279 E10.96153
G1 X76.429 Y95.812 E10.98776
G1 X76.2 Y96.46 E11.01406
G1 X76.2 Y97.147 E11.04035
G1 X76.429 Y97.795 E11.06666
G1 X76.86 Y98.329 E11.09292
G1 X77.445 Y98.69 E11.11923
G1 X78.117 Y98.834 E11.14553
G1 X78.798 Y98.747 E11.1718
G1 X79.412 Y98.438 E11.19811
G1 X79.887 Y97.943 E11.22436
G1 X80.166 Y97.327 E11.25024
G1 X80.233 Y96.804 E11.27042
G1 X80.166 Y96.281 E11.2906
G1 X79.887 Y95.665 E11.31648
G1 X79.417 Y95.175 E11.34246
G0 F972 X79.412 Y95.17
G0 X78.8 Y94.86
G1 F2400 E8.84246
G0 F4320 X77.609 Y94.995
G0 X76.282 Y95.729
G0 X77.481 Y96.401
G0 X42.599 Y96.607
G0 X43.932 Y96.27
G0 X43.025 Y95.185
G1 F2400 E11.34246
G1 F1080 X42.413 Y94.869 E11.36882
G1 X41.758 Y94.777 E11.39413
G1 X41.352 Y94.823 E11.40977
G1 X40.731 Y95.072 E11.43537
G1 X40.215 Y95.527 E11.4617
G1 X39.88 Y96.126 E11.48797
G1 X39.764 Y96.804 E11.51429
G1 X39.88 Y97.481 E11.54058
G1 X40.215 Y98.08 E11.56684
G1 X40.731 Y98.535 E11.59317
G1 X41.369 Y98.79 E11.61947
G1 X42.055 Y98.82 E11.64574
G1 X42.711 Y98.618 E11.67201
G1 X43.264 Y98.211 E11.69829
G1 X43.65 Y97.641 E11.72463
G1 X43.821 Y96.978 E11.75084
G1 X43.769 Y96.312 E11.7764
G1 X43.495 Y95.695 E11.80224
G0 F972 X43.492 Y95.687
G0 X43.025 Y95.185
G0 F4320 X42.826 Y95.448
;TYPE:WALL-OUTER
G1 F1080 X42.313 Y95.183 E11.82434
G1 X41.754 Y95.105 E11.84594
G1 X41.432 Y95.141 E11.85834
G1 X40.904 Y95.353 E11.88011
G1 X40.472 Y95.734 E11.90215
G1 X40.191 Y96.236 E11.92417
G1 X40.094 Y96.804 E11.94622
G1 X40.191 Y97.371 E11.96824
G1 X40.472 Y97.873 E11.99025
G1 X40.904 Y98.254 E12.0123
G1 X41.438 Y98.468 E12.03431
G1 X42.013 Y98.493 E12.05634
G1 X42.563 Y98.324 E12.07836
G1 X43.026 Y97.983 E12.10037
G1 X43.349 Y97.505 E12.12244
G1 X43.493 Y96.949 E12.14442
G1 X43.449 Y96.393 E12.16577
G1 X43.265 Y95.978 E12.18314
G0 F972 X43.217 Y95.868
G0 X42.826 Y95.448
G0 F4320 X42.649 Y95.357
G1 F2400 E9.68314
G0 F4320 X42.775 Y95.114
G0 X43.633 Y95.595
G0 X42.485 Y96.349
G0 X77.481 Y96.401
G0 X76.282 Y95.729
G0 X77.488 Y95.022
G0 X78.737 Y94.903
G0 X78.703 Y95.175
G1 F2400 E12.18314
G1 F1080 X78.131 Y95.102 E12.20521
G1 X77.568 Y95.224 E12.22726
G1 X77.078 Y95.526 E12.24928
G1 X76.717 Y95.973 E12.27127
G1 X76.525 Y96.516 E12.29331
G1 X76.525 Y97.091 E12.31532
G1 X76.717 Y97.634 E12.33736
G1 X77.078 Y98.082 E12.35938
G1 X77.568 Y98.384 E12.38141
G1 X78.131 Y98.505 E12.40344
G1 X78.702 Y98.432 E12.42547
G1 X79.216 Y98.173 E12.4475
G1 X79.614 Y97.758 E12.46951
G1 X79.85 Y97.237 E12.4914
G1 X79.905 Y96.804 E12.5081
G1 X79.85 Y96.371 E12.5248
G1 X79.614 Y95.85 E12.54669
G1 X79.298 Y95.52 E12.56418
G0 F972 X79.216 Y95.435
G0 X78.703 Y95.175
G0 F4320 X78.505 Y95.15
G1 F2400 E10.06418
G0 F4320 X78.54 Y94.878
G0 X78.168 Y95.978
G0 X84.659 Y24.438
G0 X84.601 Y25.811
G0 X83.428 Y25.053
G0 X82.803 Y23.935
G0 X83.02 Y22.675
G0 X83.874 Y21.896
G0 X84.658 Y21.638
G0 X84.623 Y21.91
G1 F2400 E12.56418
G1 F1080 X84.06 Y22.032 E12.58622
G1 X83.571 Y22.334 E12.60822
G1 X83.209 Y22.781 E12.63023
G1 X83.017 Y23.324 E12.65227
G1 X83.017 Y23.899 E12.67428
G1 X83.209 Y24.442 E12.69632
G1 X83.571 Y24.89 E12.71836
G1 X84.06 Y25.192 E12.74036
G1 X84.623 Y25.313 E12.7624
G1 X85.194 Y25.24 E12.78443
G1 X85.709 Y24.981 E12.80649
G1 X86.106 Y24.566 E12.82847
G1 X86.342 Y24.045 E12.85035
G1 X86.398 Y23.612 E12.86706
G1 X86.342 Y23.179 E12.88377
G1 X86.106 Y22.658 E12.90566
G1 X85.709 Y22.243 E12.92764
G1 X85.3 Y22.037 E12.94517
G0 F972 X85.194 Y21.984
G0 X84.623 Y21.91
G0 F4320 X84.428 Y21.952
G1 F2400 E10.44517
G0 F4320 X84.371 Y21.684
G0 X85.214 Y19.867
G0 X84.933 Y19.228
G1 F2400 E12.94517
G1 F1080 X85.915 Y19.617 E12.98559
G1 X86.823 Y20.152 E13.02592
G1 X87.664 Y20.844 E13.0676
G1 X88.335 Y21.605 E13.10643
G1 X88.903 Y22.489 E13.14664
G1 X89.332 Y23.455 E13.18709
G1 X89.605 Y24.47 E13.22732
G1 X89.771 Y25.371 E13.26238
G1 X94.411 Y51.69 E14.28514
G1 X94.577 Y53.437 E14.3523
G1 X94.588 Y53.964 E14.37247
G1 X94.588 Y60.662 E14.6288
G1 X94.463 Y62.227 E14.68888
G1 X94.079 Y63.811 E14.75126
G1 X93.655 Y65.064 E14.80188
G1 X82.838 Y96.48 E16.07344
G1 X82.441 Y97.397 E16.11168
G1 X81.869 Y98.322 E16.1533
G1 X81.206 Y99.087 E16.19205
G1 X80.354 Y99.814 E16.23491
G1 X79.511 Y100.322 E16.27258
G1 X78.544 Y100.728 E16.31271
G1 X77.519 Y100.982 E16.35313
G1 X76.47 Y101.074 E16.39342
G1 X74.74 Y101.08 E16.45963
G1 X43.598 Y101.08 E17.65143
G1 X42.595 Y101.003 E17.68993
G1 X41.592 Y100.772 E17.72932
G1 X40.613 Y100.385 E17.76961
G1 X39.711 Y99.854 E17.80967
G1 X38.892 Y99.183 E17.85019
G1 X38.185 Y98.391 E17.89081
G1 X37.626 Y97.521 E17.93039
G1 X37.193 Y96.552 E17.97101
G1 X36.831 Y95.516 E18.01301
G1 X26.031 Y64.153 E19.28244
G1 X25.575 Y62.439 E19.35031
G1 X25.422 Y60.817 E19.41266
G1 X25.412 Y53.548 E19.69085
G1 X25.551 Y51.952 E19.75216
G1 X25.73 Y50.89 E19.79337
G1 X30.373 Y24.554 E20.81679
G1 X30.623 Y23.581 E20.85524
G1 X31.028 Y22.617 E20.89525
G1 X31.591 Y21.701 E20.9364
G1 X32.265 Y20.919 E20.97591
G1 X33.088 Y20.215 E21.01736
G1 X33.964 Y19.678 E21.05668
G1 X34.93 Y19.273 E21.09677
G1 X35.955 Y19.019 E21.13718
G1 X37.007 Y18.927 E21.17759
G1 X37.588 Y18.92 E21.19983
G1 X82.883 Y18.92 E22.93327
G1 X83.905 Y18.995 E22.97248
G1 X84.257 Y19.075 E22.9863
G0 F972 X84.933 Y19.228
G0 F4320 X85.118 Y19.301
G1 F2400 E20.4863
G0 F4320 X85.017 Y19.555
G0 X82.859 Y19.43
G0 X82.859 Y18.055
G0 X35.795 Y22.947
G0 X36.614 Y21.843
G0 X35.267 Y21.638
G0 X35.232 Y21.91
G1 F2400 E22.9863
G1 F1080 X34.669 Y22.032 E23.00835
G1 X34.179 Y22.334 E23.03037
G1 X33.818 Y22.781 E23.05236
G1 X33.626 Y23.324 E23.0744
G1 X33.626 Y23.899 E23.09641
G1 X33.818 Y24.442 E23.11845
G1 X34.179 Y24.89 E23.14047
G1 X34.669 Y25.192 E23.1625
G1 X35.232 Y25.313 E23.18453
G1 X35.803 Y25.24 E23.20656
G1 X36.317 Y24.981 E23.22859
G1 X36.715 Y24.566 E23.2506
G1 X36.951 Y24.045 E23.27249
G1 X37.006 Y23.612 E23.28919
G1 X36.951 Y23.179 E23.30589
G1 X36.715 Y22.658 E23.32778
G1 X36.317 Y22.243 E23.34979
G1 X35.909 Y22.037 E23.36728
G0 F972 X35.804 Y21.984
G0 X35.232 Y21.91
G0 F4320 X35.037 Y21.952
G0 X35.204 Y21.236
;TYPE:SKIN
G1 F1080 X34.417 Y21.406 E23.39809
G1 X33.733 Y21.828 E23.42885
G1 X33.229 Y22.451 E23.45952
G1 X32.961 Y23.21 E23.49032
G1 X32.961 Y24.013 E23.52105
G1 X33.229 Y24.772 E23.55186
G1 X33.733 Y25.396 E23.58255
G1 X34.418 Y25.818 E23.61334
G1 X35.204 Y25.986 E23.6441
G1 X36 Y25.885 E23.67481
G1 X36.717 Y25.524 E23.70553
G1 X37.274 Y24.945 E23.73628
G1 X37.598 Y24.228 E23.76639
G1 X37.676 Y23.612 E23.79015
G1 X37.598 Y22.996 E23.81391
G1 X37.274 Y22.279 E23.84403
G1 X36.719 Y21.7 E23.87472
G1 X36.002 Y21.339 E23.90544
G1 X35.892 Y21.324 E23.90969
G0 F972 X35.204 Y21.236
G1 F2400 E21.40969
G0 F4320 X35.214 Y21.493
G0 X34.483 Y21.57
G0 X33.756 Y20.38
G0 X34.267 Y20.272
G1 F2400 E23.90969
G1 F1080 X35.143 Y19.905 E23.94604
G1 X36.065 Y19.677 E23.98239
G1 X37.033 Y19.592 E24.01957
G1 X37.596 Y19.585 E24.04112
G1 X82.848 Y19.585 E25.77291
G1 X83.808 Y19.655 E25.80975
G1 X84.741 Y19.867 E25.84636
G1 X85.62 Y20.215 E25.88254
G1 X86.442 Y20.7 E25.91907
G1 X87.199 Y21.322 E25.95657
G1 X87.804 Y22.009 E25.9916
G1 X88.315 Y22.804 E26.02777
G1 X88.705 Y23.682 E26.06453
G1 X88.954 Y24.606 E26.10116
G1 X89.117 Y25.489 E26.13552
G1 X93.749 Y51.754 E27.15619
G1 X93.913 Y53.475 E27.22235
G1 X93.923 Y53.964 E27.24107
G1 X93.923 Y60.649 E27.4969
G1 X93.805 Y62.117 E27.55327
G1 X93.442 Y63.619 E27.6124
G1 X93.026 Y64.849 E27.66209
G1 X82.22 Y96.233 E28.93236
G1 X81.849 Y97.091 E28.96813
G1 X81.335 Y97.921 E29.00549
G1 X80.735 Y98.615 E29.0406
G1 X79.959 Y99.276 E29.07961
G1 X79.214 Y99.726 E29.11292
G1 X78.331 Y100.096 E29.14956
G1 X77.409 Y100.324 E29.18591
G1 X76.446 Y100.409 E29.22291
G1 X74.737 Y100.415 E29.28831
G1 X43.623 Y100.415 E30.47904
G1 X42.701 Y100.344 E30.51443
G1 X41.78 Y100.132 E30.5506
G1 X40.91 Y99.788 E30.5864
G1 X40.092 Y99.306 E30.62274
G1 X39.354 Y98.702 E30.65923
G1 X38.716 Y97.986 E30.69593
G1 X38.215 Y97.208 E30.73135
G1 X37.807 Y96.295 E30.76962
G1 X37.459 Y95.297 E30.81007
G1 X26.666 Y63.957 E32.07858
G1 X26.233 Y62.325 E32.1432
G1 X26.087 Y60.785 E32.2024
G1 X26.077 Y53.564 E32.47874
G1 X26.211 Y52.037 E32.53741
G1 X26.418 Y50.81 E32.58503
G1 X31.021 Y24.706 E33.59944
G1 X31.255 Y23.794 E33.63547
G1 X31.621 Y22.923 E33.67163
G1 X32.131 Y22.094 E33.70888
G1 X32.738 Y21.388 E33.74451
G1 X33.479 Y20.755 E33.7818
G1 X33.676 Y20.634 E33.79065
G0 F972 X34.267 Y20.272
G1 F2400 E31.29065
G0 F4320 X34.135 Y20.055
G0 X35.082 Y19.721
G0 X36.077 Y19.512
G0 X35.92 Y18.155
G0 X83.881 Y23.47
G0 X82.526 Y23.239
G0 X82.352 Y23.21
G1 F2400 E33.79065
G1 F1080 X82.352 Y24.013 E33.82138
G1 X82.62 Y24.772 E33.85219
G1 X83.125 Y25.396 E33.88291
G1 X83.809 Y25.818 E33.91367
G1 X84.595 Y25.986 E33.94443
G1 X85.391 Y25.885 E33.97513
G1 X86.111 Y25.524 E34.00596
G1 X86.665 Y24.944 E34.03665
G1 X86.988 Y24.229 E34.06668
G1 X87.068 Y23.612 E34.09049
G1 X86.988 Y22.995 E34.1143
G1 X86.665 Y22.28 E34.14432
G1 X86.111 Y21.7 E34.17502
G1 X85.392 Y21.339 E34.20581
G1 X84.595 Y21.236 E34.23656
G1 X83.808 Y21.406 E34.26738
G1 X83.125 Y21.828 E34.2981
G1 X82.62 Y22.451 E34.32879
G1 X82.583 Y22.555 E34.33302
G0 F972 X82.352 Y23.21
G1 F2400 E31.83302
G0 F4320 X82.607 Y23.252
G0 X82.774 Y24.686
G0 X83.973 Y24.014
G0 X78.168 Y95.978
G0 X78.109 Y94.604
G0 X77.412 Y94.838
G0 X77.316 Y94.598
G1 F2400 E34.33302
G1 F1080 X76.632 Y95.02 E34.36377
G1 X76.128 Y95.643 E34.39444
G1 X75.86 Y96.402 E34.42525
G1 X75.86 Y97.205 E34.45598
G1 X76.128 Y97.964 E34.48678
G1 X76.632 Y98.588 E34.51748
G1 X77.317 Y99.01 E34.54827
G1 X78.103 Y99.178 E34.57903
G1 X78.899 Y99.077 E34.60974
G1 X79.616 Y98.716 E34.64046
G1 X80.173 Y98.137 E34.6712
G1 X80.497 Y97.42 E34.70131
G1 X80.575 Y96.804 E34.72508
G1 X80.497 Y96.188 E34.74884
G1 X80.173 Y95.471 E34.77895
G1 X79.618 Y94.892 E34.80964
G1 X78.901 Y94.53 E34.84038
G1 X78.102 Y94.429 E34.8712
G1 X77.995 Y94.452 E34.87539
G0 F972 X77.316 Y94.598
G1 F2400 E32.37539
G0 F4320 X77.412 Y94.838
G0 X76.282 Y95.729
G0 X77.481 Y96.401
G0 X42.485 Y96.349
G0 X43.633 Y95.595
G0 X41.759 Y94.692
G0 X41.762 Y94.435
G1 F2400 E34.87539
G1 F1080 X41.268 Y94.491 E34.89442
G1 X40.55 Y94.778 E34.92401
G1 X39.947 Y95.311 E34.95481
G1 X39.555 Y96.011 E34.98551
G1 X39.419 Y96.804 E35.0163
G1 X39.555 Y97.596 E35.04706
G1 X39.947 Y98.296 E35.07776
G1 X40.55 Y98.829 E35.10856
G1 X41.297 Y99.128 E35.13935
G1 X42.099 Y99.162 E35.17007
G1 X42.866 Y98.926 E35.20078
G1 X43.513 Y98.45 E35.23152
G1 X43.965 Y97.783 E35.26236
G1 X44.165 Y97.008 E35.29299
G1 X44.103 Y96.227 E35.32297
G1 X43.78 Y95.497 E35.35352
G1 X43.233 Y94.91 E35.38423
G1 X42.518 Y94.54 E35.41504
G1 X42.449 Y94.53 E35.41771
G0 F972 X41.762 Y94.435
G0 F4320 X41.759 Y94.69
G0 X40.791 Y95.168
G0 X39.987 Y96.164
G0 X39.973 Y97.822
G0 X39.614 Y98.021
G1 F1080 X38.052 Y96.459 E35.50225
G1 X37.99 Y96.397
G0 F4320 X37.753 Y95.665
G1 F1080 X39.337 Y97.249 E35.58797
G0 F4320 X39.279 Y96.696
G1 F1080 X37.49 Y94.907 E35.6848
G1 X37.428 Y94.845
G0 F4320 X37.23 Y94.152
G1 F1080 X39.351 Y96.273 E35.79959
G0 F4320 X39.45 Y95.877
G1 F1080 X36.97 Y93.397 E35.93381
G1 X36.908 Y93.335
G0 F4320 X36.71 Y92.642
G1 F1080 X39.628 Y95.56 E36.09174
G0 F4320 X39.805 Y95.243
G1 F1080 X36.45 Y91.887 E36.27335
G1 X36.388 Y91.825
G0 F4320 X36.19 Y91.132
G1 F1080 X40.059 Y95.001 E36.48274
G0 F4320 X40.321 Y94.768
G1 F1080 X35.93 Y90.377 E36.72039
G1 X35.868 Y90.315
G0 F4320 X35.67 Y89.622
G1 F1080 X40.626 Y94.578 E36.98862
G0 F4320 X40.979 Y94.436
G1 F1080 X35.41 Y88.867 E37.29003
G1 X35.348 Y88.805
G0 F4320 X35.15 Y88.112
G1 F1080 X41.36 Y94.322 E37.62612
G0 F4320 X41.816 Y94.283
