;FLAVOR:Marlin
;TIME:2512
;Filament used: 1.28188m
;Layer height: 0.21875
;MINX:37.974
;MINY:37.851
;MINZ:0.263
;MAXX:81.3
;MAXY:81.292
;MAXZ:18.878
;Generated with Cura_SteamEngine 4.5.0
M140 S60
M105
M190 S60
M104 S210
M105
M109 S210
M82 ;absolute extrusion mode
G21;(metric values)
G90;(absolute positioning)
M82;(set extruder to absolute mode)
M107;(start with the fan off)
G28;(Home the printer)
G92 E0;(Reset the extruder to 0)
G0 Z5 E5 F500;(Move up and prime the nozzle)
G0 X-1 Z0;(Move outside the printable area)
G1 Y60 E8 F500;(Draw a priming/wiping line to the rear)
G1 X-1;(Move a little closer to the print area)
G1 Y10 E16 F500;(draw more priming/wiping)
G1 E15 F250;(Small retract)
G92 E0;(Zero the extruder)
G92 E0
G92 E0
G1 F2400 E-2.5
;LAYER_COUNT:86
;LAYER:0
M107
;MESH:head_to_body_mount.STL
G0 F4320 X64.912 Y39.612 Z0.263
;TYPE:WALL-INNER
G1 F2400 E0
G1 F1080 X67.04 Y40.246 E0.08498
G1 X69.112 Y41.113 E0.17093
G1 X71.055 Y42.18 E0.25577
G1 X72.896 Y43.463 E0.34164
G1 X74.573 Y44.921 E0.42669
G1 X76.096 Y46.559 E0.51228
G1 X77.435 Y48.35 E0.59786
G1 X78.574 Y50.266 E0.68316
G1 X79.503 Y52.294 E0.76853
G1 X79.906 Y53.487 E0.81672
G1 X80.235 Y54.48 E0.85676
G1 X80.69 Y56.595 E0.93955
G1 X80.937 Y58.823 E1.02534
G1 X80.975 Y59.995 E1.07021
G1 X80.945 Y61.111 E1.11294
G1 X80.716 Y63.257 E1.19553
G1 X80.251 Y65.451 E1.28136
G1 X79.557 Y67.575 E1.36687
G1 X78.651 Y69.587 E1.45132
G1 X77.515 Y71.53 E1.53745
G1 X76.188 Y73.33 E1.62304
G1 X74.681 Y74.974 E1.70839
G1 X73.004 Y76.452 E1.79393
G1 X71.199 Y77.729 E1.87855
G1 X69.226 Y78.831 E1.96504
G1 X67.184 Y79.701 E2.04998
G1 X65.046 Y80.354 E2.13553
G1 X62.861 Y80.774 E2.22068
G1 X60.635 Y80.96 E2.30617
G1 X58.394 Y80.909 E2.39195
G1 X56.4 Y80.651 E2.4689
G1 X56.044 Y80.594 E2.4827
G1 X53.951 Y80.084 E2.56514
G1 X51.916 Y79.349 E2.64794
G1 X49.898 Y78.378 E2.73365
G1 X48.012 Y77.207 E2.81861
G1 X46.25 Y75.832 E2.90414
G1 X44.638 Y74.273 E2.98996
G1 X43.212 Y72.567 E3.07505
G1 X41.973 Y70.713 E3.16039
G1 X40.934 Y68.731 E3.24603
G1 X40.114 Y66.657 E3.33138
G1 X39.521 Y64.508 E3.4167
G1 X39.158 Y62.299 E3.50237
G1 X39.031 Y60.082 E3.58736
G1 X39.14 Y57.843 E3.67314
G1 X39.488 Y55.635 E3.75869
G1 X40.036 Y53.597 E3.83945
G1 X40.886 Y51.37 E3.93068
G1 X41.899 Y49.412 E4.01504
G1 X43.125 Y47.549 E4.10039
G1 X44.533 Y45.838 E4.18519
G1 X46.135 Y44.268 E4.27103
G1 X47.889 Y42.88 E4.35663
G1 X49.769 Y41.696 E4.44166
G1 X51.782 Y40.709 E4.52746
G1 X53.882 Y39.941 E4.61303
G1 X56.04 Y39.407 E4.69811
G1 X58.324 Y39.094 E4.78634
G1 X60.49 Y39.036 E4.86926
G1 X62.699 Y39.203 E4.95404
G1 X64.23 Y39.486 E5.01362
G0 F972 X64.912 Y39.612
G1 F2400 E2.51362
G0 F4320 X62.678 Y39.368
G0 X62.924 Y38.033
G0 X62.691 Y47.453
G0 X62.179 Y46.178
G0 X61.225 Y47.228
G1 F2400 E5.01362
G1 F1080 X60.997 Y47.877 E5.03995
G1 X60.997 Y48.562 E5.06616
G1 X61.225 Y49.211 E5.09249
G1 X61.657 Y49.746 E5.1188
G1 X62.242 Y50.105 E5.14507
G1 X62.913 Y50.25 E5.17134
G1 X63.594 Y50.163 E5.19762
G1 X64.209 Y49.854 E5.22396
G1 X64.684 Y49.359 E5.25021
G1 X64.963 Y48.743 E5.27609
G1 X65.03 Y48.22 E5.29627
G1 X64.963 Y47.697 E5.31645
G1 X64.684 Y47.081 E5.34233
G1 X64.209 Y46.586 E5.36858
G1 X63.595 Y46.276 E5.39491
G1 X62.913 Y46.189 E5.42122
G1 X62.242 Y46.334 E5.44749
G1 X61.663 Y46.69 E5.4735
G0 F972 X61.657 Y46.694
G0 X61.225 Y47.228
G1 F2400 E2.9735
G0 F4320 X60.831 Y48.591
G0 X59.13 Y48.774
G0 X58.152 Y49.753
G0 X57.227 Y50.239
G1 F2400 E5.4735
G1 F1080 X57.863 Y50.054 E5.49885
G1 X58.222 Y49.841 E5.51482
G1 X58.684 Y49.359 E5.54038
G1 X58.967 Y48.732 E5.5667
G1 X59.026 Y48.047 E5.59301
G1 X58.852 Y47.382 E5.61932
G1 X58.468 Y46.814 E5.64556
G1 X57.914 Y46.405 E5.67191
G1 X57.259 Y46.204 E5.69813
G1 X56.572 Y46.233 E5.72445
G1 X55.935 Y46.488 E5.75071
G1 X55.418 Y46.943 E5.77706
G1 X55.084 Y47.542 E5.80331
G1 X54.967 Y48.22 E5.82964
G1 X55.084 Y48.897 E5.85593
G1 X55.418 Y49.496 E5.88218
G1 X55.935 Y49.951 E5.90854
G1 X56.535 Y50.194 E5.93331
G0 F972 X56.544 Y50.197
G0 X57.227 Y50.239
G1 F2400 E3.43331
G0 F4320 X57.93 Y50.207
G0 X57.388 Y48.954
G0 X60.49 Y57.719
G0 X60.778 Y56.389
G0 X62.331 Y57.352
G1 F2400 E5.93331
G1 F1080 X61.853 Y56.999 E5.95605
G1 X61.316 Y56.727 E5.97909
G1 X60.743 Y56.552 E6.00202
G1 X60.15 Y56.476 E6.0249
G1 X59.557 Y56.5 E6.04761
G1 X58.975 Y56.626 E6.0704
G1 X58.419 Y56.847 E6.09329
G1 X57.91 Y57.159 E6.11614
G1 X57.456 Y57.557 E6.13925
G1 X57.081 Y58.022 E6.16211
G1 X56.789 Y58.542 E6.18493
G1 X56.589 Y59.107 E6.20787
G1 X56.488 Y59.697 E6.23078
G1 X56.486 Y60.291 E6.25351
G1 X56.585 Y60.883 E6.27648
G1 X56.784 Y61.448 E6.2994
G1 X57.074 Y61.97 E6.32226
G1 X57.451 Y62.438 E6.34526
G1 X57.898 Y62.832 E6.36806
G1 X58.412 Y63.149 E6.39117
G1 X58.967 Y63.371 E6.41405
G1 X59.551 Y63.498 E6.43692
G1 X60.145 Y63.525 E6.45967
G1 X60.736 Y63.45 E6.48247
G1 X61.309 Y63.276 E6.50539
G1 X61.842 Y63.008 E6.52822
G1 X62.325 Y62.651 E6.55121
G1 X62.741 Y62.22 E6.57413
G1 X63.076 Y61.724 E6.59704
G1 X63.323 Y61.179 E6.61994
G1 X63.474 Y60.601 E6.6428
G1 X63.526 Y60.006 E6.66566
G1 X63.478 Y59.41 E6.68854
G1 X63.328 Y58.83 E6.71147
G1 X63.081 Y58.284 E6.7344
G1 X62.797 Y57.864 E6.7538
G0 F972 X62.747 Y57.789
G0 X62.331 Y57.352
G1 F2400 E4.2538
G0 F4320 X62.983 Y58.338
G0 X63.638 Y60.63
G0 X62.297 Y60.4
G0 X73.056 Y71.161
G0 X72.149 Y70.128
G0 X72.26 Y70.254
G1 F2400 E6.7538
G1 F1080 X71.828 Y70.789 E6.78012
G1 X71.599 Y71.437 E6.80642
G1 X71.599 Y72.124 E6.83271
G1 X71.828 Y72.772 E6.85901
G1 X72.26 Y73.306 E6.8853
G1 X72.845 Y73.666 E6.91159
G1 X73.516 Y73.811 E6.93786
G1 X74.198 Y73.724 E6.96417
G1 X74.812 Y73.414 E6.99049
G1 X75.287 Y72.919 E7.01675
G1 X75.565 Y72.303 E7.04261
G1 X75.633 Y71.78 E7.0628
G1 X75.565 Y71.257 E7.08298
G1 X75.287 Y70.641 E7.10884
G1 X74.812 Y70.146 E7.1351
G1 X74.197 Y69.837 E7.16144
G1 X73.516 Y69.75 E7.18771
G1 X72.852 Y69.894 E7.21371
G0 F972 X72.845 Y69.895
G0 X72.26 Y70.254
G1 F2400 E4.71371
G0 F4320 X71.433 Y71.408
G0 X72.788 Y71.639
G0 X47.203 Y71.583
G0 X48.521 Y71.211
G0 X47.538 Y70.236
G0 X46.315 Y69.863
G0 X45.054 Y70.254
G1 F2400 E7.21371
G1 F1080 X44.623 Y70.789 E7.24001
G1 X44.394 Y71.437 E7.26631
G1 X44.394 Y72.124 E7.2926
G1 X44.623 Y72.772 E7.3189
G1 X45.054 Y73.305 E7.34513
G1 X45.639 Y73.666 E7.37144
G1 X46.31 Y73.811 E7.39771
G1 X46.992 Y73.724 E7.42402
G1 X47.606 Y73.414 E7.45035
G1 X48.081 Y72.919 E7.4766
G1 X48.36 Y72.303 E7.50248
G1 X48.427 Y71.78 E7.52266
G1 X48.36 Y71.257 E7.54284
G1 X48.081 Y70.641 E7.56872
G1 X47.606 Y70.146 E7.59497
G1 X46.991 Y69.837 E7.62131
G1 X46.31 Y69.75 E7.64759
G1 X45.646 Y69.894 E7.67359
G0 F972 X45.639 Y69.895
G0 X45.054 Y70.254
G0 F4320 X45.272 Y70.502
;TYPE:WALL-OUTER
G1 F1080 X44.911 Y70.95 E7.69561
G1 X44.719 Y71.493 E7.71765
G1 X44.719 Y72.068 E7.73965
G1 X44.911 Y72.611 E7.7617
G1 X45.272 Y73.058 E7.78368
G1 X45.762 Y73.36 E7.80571
G1 X46.324 Y73.482 E7.82772
G1 X46.895 Y73.409 E7.84975
G1 X47.41 Y73.149 E7.87183
G1 X47.808 Y72.734 E7.89383
G1 X48.044 Y72.213 E7.91572
G1 X48.099 Y71.78 E7.93243
G1 X48.044 Y71.347 E7.94913
G1 X47.808 Y70.826 E7.97102
G1 X47.41 Y70.411 E7.99303
G1 X46.895 Y70.152 E8.01509
G1 X46.324 Y70.079 E8.03712
G1 X45.878 Y70.176 E8.05458
G0 F972 X45.762 Y70.201
G0 X45.272 Y70.502
G0 F4320 X45.147 Y70.657
G1 F2400 E5.55458
G0 F4320 X44.935 Y70.484
G0 X45.682 Y69.999
G0 X47.706 Y70.011
G0 X46.888 Y71.115
G0 X58.606 Y61.871
G0 X57.798 Y62.965
G0 X58.559 Y62.858
G1 F2400 E8.05458
G1 F1080 X59.063 Y63.059 E8.07535
G1 X59.593 Y63.175 E8.09611
G1 X60.132 Y63.199 E8.11676
G1 X60.668 Y63.131 E8.13744
G1 X61.188 Y62.973 E8.15824
G1 X61.671 Y62.73 E8.17893
G1 X62.11 Y62.406 E8.19981
G1 X62.487 Y62.015 E8.22059
G1 X62.791 Y61.565 E8.24138
G1 X63.016 Y61.07 E8.26219
G1 X63.153 Y60.545 E8.28295
G1 X63.2 Y60.005 E8.3037
G1 X63.156 Y59.464 E8.32447
G1 X63.02 Y58.938 E8.34526
G1 X62.796 Y58.443 E8.36605
G1 X62.493 Y57.993 E8.38681
G1 X62.115 Y57.597 E8.40776
G1 X61.682 Y57.277 E8.42837
G1 X61.194 Y57.03 E8.4493
G1 X60.674 Y56.871 E8.47011
G1 X60.136 Y56.802 E8.49087
G1 X59.598 Y56.824 E8.51148
G1 X59.07 Y56.938 E8.53215
G1 X58.565 Y57.139 E8.55295
G1 X58.103 Y57.422 E8.57368
G1 X57.691 Y57.783 E8.59465
G1 X57.351 Y58.205 E8.61539
G1 X57.086 Y58.677 E8.6361
G1 X56.905 Y59.189 E8.65688
G1 X56.813 Y59.725 E8.6777
G1 X56.811 Y60.265 E8.69836
G1 X56.901 Y60.802 E8.7192
G1 X57.081 Y61.314 E8.73997
G1 X57.345 Y61.788 E8.76073
G1 X57.687 Y62.213 E8.78161
G1 X57.983 Y62.474 E8.79671
G0 F972 X58.092 Y62.57
G0 X58.559 Y62.858
G0 F4320 X58.744 Y62.932
G1 F2400 E6.29671
G0 F4320 X58.641 Y63.187
G0 X57.964 Y62.743
G0 X57.166 Y61.908
G0 X56.693 Y60.855
G0 X56.599 Y59.707
G0 X56.89 Y58.588
G0 X58.344 Y56.698
G0 X58.954 Y57.914
G0 X57.095 Y49.039
G0 X57.246 Y50.407
G0 X57.19 Y49.911
G1 F2400 E8.79671
G1 F1080 X57.733 Y49.753 E8.81836
G1 X58.018 Y49.584 E8.83104
G1 X58.411 Y49.174 E8.85277
G1 X58.648 Y48.649 E8.87482
G1 X58.697 Y48.075 E8.89686
G1 X58.552 Y47.518 E8.91889
G1 X58.23 Y47.042 E8.94088
G1 X57.766 Y46.699 E8.96296
G1 X57.217 Y46.531 E8.98494
G1 X56.641 Y46.555 E9.007
G1 X56.108 Y46.769 E9.02898
G1 X55.675 Y47.15 E9.05105
G1 X55.395 Y47.652 E9.07305
G1 X55.297 Y48.22 E9.09511
G1 X55.395 Y48.787 E9.11713
G1 X55.675 Y49.289 E9.13913
G1 X56.108 Y49.67 E9.1612
G1 X56.506 Y49.831 E9.17763
G0 F972 X56.617 Y49.876
G0 X57.19 Y49.911
G0 F4320 X57.382 Y49.856
G1 F2400 E6.67763
G0 F4320 X57.458 Y50.12
G0 X58.152 Y49.753
G0 X59.194 Y48.032
G0 X60.832 Y48.032
G0 X61.254 Y47.297
G0 X61.513 Y47.389
G1 F2400 E9.17763
G1 F1080 X61.322 Y47.932 E9.19966
G1 X61.322 Y48.507 E9.22166
G1 X61.513 Y49.05 E9.24369
G1 X61.875 Y49.498 E9.26573
G1 X62.365 Y49.799 E9.28774
G1 X62.927 Y49.921 E9.30975
G1 X63.498 Y49.848 E9.33178
G1 X64.013 Y49.589 E9.35384
G1 X64.411 Y49.174 E9.37585
G1 X64.647 Y48.653 E9.39774
G1 X64.702 Y48.22 E9.41444
G1 X64.647 Y47.787 E9.43114
G1 X64.411 Y47.266 E9.45303
G1 X64.013 Y46.851 E9.47504
G1 X63.498 Y46.591 E9.49712
G1 X62.927 Y46.518 E9.51915
G1 X62.365 Y46.64 E9.54116
G1 X61.976 Y46.88 E9.55865
G0 F972 X61.875 Y46.942
G0 X61.513 Y47.389
G0 F4320 X61.447 Y47.577
G1 F2400 E7.05865
G0 F4320 X61.188 Y47.485
G0 X61.677 Y46.85
G0 X62.905 Y46.02
G0 X62.965 Y47.394
G0 X64.333 Y38.294
G0 X64.087 Y39.629
G0 X64.914 Y39.561
G0 X64.981 Y39.294
G1 F2400 E9.55865
G1 F1080 X67.153 Y39.941 E9.64538
G1 X69.252 Y40.819 E9.73245
G1 X71.231 Y41.906 E9.81886
G1 X73.091 Y43.202 E9.90562
G1 X74.8 Y44.688 E9.99229
G1 X76.347 Y46.352 E10.07924
G1 X77.704 Y48.166 E10.16594
G1 X78.861 Y50.113 E10.25261
G1 X79.808 Y52.18 E10.33962
G1 X80.215 Y53.385 E10.3883
G1 X80.549 Y54.393 E10.42894
G1 X81.011 Y56.541 E10.51302
G1 X81.262 Y58.802 E10.60008
G1 X81.3 Y59.995 E10.64576
G1 X81.27 Y61.13 E10.68921
G1 X81.037 Y63.309 E10.77308
G1 X80.565 Y65.536 E10.8602
G1 X79.862 Y67.687 E10.9468
G1 X78.937 Y69.743 E11.03308
G1 X77.787 Y71.71 E11.12028
G1 X76.439 Y73.538 E11.2072
G1 X74.912 Y75.204 E11.29369
G1 X73.208 Y76.706 E11.38062
G1 X71.368 Y78.007 E11.46686
G1 X69.375 Y79.121 E11.55423
G1 X67.293 Y80.008 E11.64084
G1 X65.128 Y80.669 E11.72747
G1 X62.902 Y81.097 E11.81422
G1 X60.645 Y81.285 E11.9009
G1 X58.373 Y81.234 E11.98787
G1 X56.349 Y80.972 E12.06597
G1 X55.977 Y80.913 E12.08039
G1 X53.858 Y80.396 E12.16386
G1 X51.79 Y79.649 E12.24801
G1 X49.745 Y78.665 E12.33486
G1 X47.825 Y77.473 E12.42134
G1 X46.033 Y76.075 E12.50832
G1 X44.405 Y74.501 E12.59499
G1 X42.948 Y72.757 E12.68196
G1 X41.692 Y70.878 E12.76845
G1 X40.64 Y68.871 E12.85517
G1 X39.806 Y66.76 E12.94203
G1 X39.202 Y64.571 E13.02894
G1 X38.835 Y62.343 E13.11535
G1 X38.706 Y60.075 E13.20229
G1 X38.816 Y57.813 E13.28896
G1 X39.17 Y55.567 E13.37597
G1 X39.727 Y53.493 E13.45816
G1 X40.588 Y51.239 E13.5505
G1 X41.616 Y49.251 E13.63615
G1 X42.863 Y47.357 E13.72293
G1 X44.297 Y45.614 E13.80931
G1 X45.92 Y44.023 E13.89629
G1 X47.698 Y42.616 E13.98306
G1 X49.612 Y41.411 E14.06961
G1 X51.652 Y40.41 E14.15658
G1 X53.783 Y39.631 E14.24341
G1 X55.983 Y39.087 E14.33014
G1 X58.299 Y38.769 E14.4196
G1 X60.496 Y38.711 E14.50371
G1 X62.746 Y38.881 E14.59006
G1 X64.299 Y39.168 E14.6505
G0 F972 X64.981 Y39.294
G0 F4320 X65.172 Y39.351
G1 F2400 E12.1505
G0 F4320 X65.093 Y39.613
G0 X66.974 Y40.419
G0 X67.503 Y39.151
G0 X73.568 Y70.955
G0 X73.305 Y69.607
G0 X72.335 Y70.339
G0 X71.71 Y71.457
G0 X71.927 Y72.717
G0 X72.782 Y73.496
G0 X73.471 Y73.749
G0 X73.53 Y73.482
G1 F2400 E14.6505
G1 F1080 X74.101 Y73.409 E14.67253
G1 X74.616 Y73.149 E14.69461
G1 X75.014 Y72.734 E14.71662
G1 X75.249 Y72.213 E14.73849
G1 X75.305 Y71.78 E14.7552
G1 X75.249 Y71.347 E14.77191
G1 X75.014 Y70.826 E14.79378
G1 X74.616 Y70.411 E14.81579
G1 X74.101 Y70.152 E14.83785
G1 X73.53 Y70.079 E14.85988
G1 X72.968 Y70.201 E14.88189
G1 X72.478 Y70.502 E14.90389
G1 X72.116 Y70.95 E14.92594
G1 X71.924 Y71.493 E14.94798
G1 X71.924 Y72.068 E14.96998
G1 X72.116 Y72.611 E14.99203
G1 X72.478 Y73.058 E15.01404
G1 X72.867 Y73.298 E15.03153
G0 F972 X72.968 Y73.36
G0 X73.53 Y73.482
G0 F4320 X73.728 Y73.457
G0 X73.501 Y74.155
;TYPE:SKIN
G1 F1080 X74.299 Y74.054 E15.06231
G1 X75.018 Y73.692 E15.09312
G1 X75.573 Y73.112 E15.12384
G1 X75.895 Y72.397 E15.15385
G1 X75.975 Y71.78 E15.17766
G1 X75.895 Y71.163 E15.20147
G1 X75.573 Y70.448 E15.23148
G1 X75.016 Y69.868 E15.26226
G1 X74.298 Y69.507 E15.29301
G1 X73.501 Y69.406 E15.32376
G1 X72.717 Y69.575 E15.35445
G1 X72.033 Y69.995 E15.38517
G1 X71.527 Y70.62 E15.41594
G1 X71.259 Y71.379 E15.44675
G1 X71.259 Y72.182 E15.47748
G1 X71.527 Y72.941 E15.50828
G1 X72.033 Y73.565 E15.53903
G1 X72.717 Y73.986 E15.56976
G1 X72.823 Y74.009 E15.57392
G0 F972 X73.501 Y74.155
G1 F2400 E13.07392
G0 F4320 X73.513 Y73.897
G0 X74.248 Y73.884
G0 X74.903 Y74.487
G0 X74.444 Y74.729
G1 F2400 E15.57392
G1 F1080 X72.793 Y76.184 E15.65813
G1 X71.014 Y77.443 E15.74154
G1 X69.082 Y78.522 E15.82623
G1 X67.061 Y79.383 E15.9103
G1 X64.967 Y80.023 E15.99409
G1 X62.807 Y80.438 E16.07827
G1 X60.632 Y80.62 E16.1618
G1 X58.425 Y80.569 E16.24628
G1 X56.443 Y80.313 E16.32276
G1 X56.102 Y80.258 E16.33598
G1 X54.054 Y79.759 E16.41665
G1 X52.055 Y79.038 E16.49798
G1 X50.053 Y78.074 E16.58301
G1 X48.211 Y76.931 E16.66598
G1 X46.476 Y75.577 E16.7502
G1 X44.881 Y74.034 E16.83513
G1 X43.486 Y72.365 E16.91837
G1 X42.264 Y70.536 E17.00256
G1 X41.243 Y68.588 E17.08672
G1 X40.438 Y66.554 E17.17044
G1 X39.854 Y64.436 E17.25452
G1 X39.496 Y62.262 E17.33884
G1 X39.372 Y60.08 E17.42248
G1 X39.48 Y57.876 E17.50693
G1 X39.822 Y55.701 E17.59119
G1 X40.361 Y53.695 E17.67068
G1 X41.194 Y51.514 E17.76003
G1 X42.192 Y49.585 E17.84315
G1 X43.402 Y47.747 E17.92736
G1 X44.779 Y46.074 E18.01028
G1 X46.364 Y44.52 E18.09523
G1 X48.08 Y43.162 E18.17898
G1 X49.937 Y41.992 E18.26298
G1 X51.917 Y41.022 E18.34735
G1 X53.979 Y40.267 E18.43139
G1 X56.112 Y39.739 E18.51548
G1 X58.342 Y39.434 E18.60162
G1 X60.474 Y39.376 E18.68324
G1 X62.666 Y39.543 E18.76737
G1 X64.829 Y39.942 E18.85155
G1 X66.93 Y40.568 E18.93545
G1 X68.965 Y41.419 E19.01986
G1 X70.873 Y42.467 E19.10317
G1 X72.682 Y43.728 E19.18756
G1 X74.34 Y45.17 E19.27165
G1 X75.832 Y46.775 E19.35552
G1 X77.158 Y48.547 E19.44021
G1 X78.27 Y50.419 E19.52354
G1 X79.187 Y52.421 E19.60781
G1 X79.584 Y53.594 E19.65521
G1 X79.909 Y54.577 E19.69483
G1 X80.354 Y56.646 E19.77582
G1 X80.597 Y58.834 E19.86007
G1 X80.635 Y59.986 E19.90418
G1 X80.605 Y61.091 E19.94648
G1 X80.38 Y63.209 E20.02799
G1 X79.925 Y65.356 E20.11199
G1 X79.242 Y67.447 E20.19617
G1 X78.345 Y69.438 E20.27974
G1 X77.238 Y71.332 E20.3637
G1 X75.921 Y73.118 E20.44862
G1 X74.913 Y74.218 E20.50572
G0 F972 X74.444 Y74.729
G1 F2400 E18.00572
