;FLAVOR:Marlin
;TIME:1061
;Filament used: 0.621381m
;Layer height: 0.21875
;MINX:28.2
;MINY:47.2
;MINZ:0.263
;MAXX:91.8
;MAXY:72.8
;MAXZ:9.899
;Generated with Cura_SteamEngine 4.5.0
M140 S60
M105
M190 S60
M104 S210
M105
M109 S210
M82 ;absolute extrusion mode
G21;(metric values)
G90;(absolute positioning)
M82;(set extruder to absolute mode)
M107;(start with the fan off)
G28;(Home the printer)
G92 E0;(Reset the extruder to 0)
G0 Z5 E5 F500;(Move up and prime the nozzle)
G0 X-1 Z0;(Move outside the printable area)
G1 Y60 E8 F500;(Draw a priming/wiping line to the rear)
G1 X-1;(Move a little closer to the print area)
G1 Y10 E16 F500;(draw more priming/wiping)
G1 E15 F250;(Small retract)
G92 E0;(Zero the extruder)
G92 E0
G92 E0
G1 F2400 E-2.5
;LAYER_COUNT:45
;LAYER:0
M107
;MESH:head_to_body_mount_servo_pot.STL
G0 F4320 X29.543 Y70.474 Z0.263
;TYPE:WALL-INNER
G1 F2400 E0
G1 F1080 X29.761 Y70.9 E0.01831
G1 X30.1 Y71.239 E0.03666
G1 X30.526 Y71.457 E0.05497
G1 X30.959 Y71.525 E0.07175
G1 X77.041 Y71.525 E1.8353
G1 X77.474 Y71.457 E1.85208
G1 X77.9 Y71.239 E1.87039
G1 X78.239 Y70.9 E1.88874
G1 X78.457 Y70.474 E1.90705
G1 X78.525 Y70.041 E1.92383
G1 X78.525 Y59.173 E2.33974
G1 X78.561 Y58.842 E2.35249
G1 X78.621 Y58.724 E2.35755
G1 X78.724 Y58.621 E2.36313
G1 X78.842 Y58.561 E2.36819
G1 X79.187 Y58.525 E2.38147
G1 X91.475 Y58.525 E2.85173
G1 X91.475 Y59.475 E2.88809
G1 X81.252 Y59.475 E3.27932
G1 X80.753 Y59.489 E3.29842
G1 X80.304 Y59.636 E3.3165
G1 X79.917 Y59.917 E3.33481
G1 X79.636 Y60.304 E3.35311
G1 X79.487 Y60.76 E3.37147
G1 X79.475 Y71.826 E3.79496
G1 X79.439 Y72.158 E3.80774
G1 X79.379 Y72.276 E3.81281
G1 X79.276 Y72.379 E3.81839
G1 X79.147 Y72.445 E3.82393
G1 X78.956 Y72.475 E3.83133
G1 X29.044 Y72.475 E5.74146
G1 X28.853 Y72.445 E5.74886
G1 X28.724 Y72.379 E5.7544
G1 X28.621 Y72.276 E5.75998
G1 X28.555 Y72.147 E5.76552
G1 X28.525 Y71.956 E5.77292
G1 X28.525 Y47.525 E6.7079
G1 X29.475 Y47.525 E6.74425
G1 X29.475 Y69.785 E7.59614
G0 F972 X29.475 Y70.041
G0 X29.543 Y70.474
G0 F4320 X29.856 Y70.372
;TYPE:WALL-OUTER
G1 F1080 X30.027 Y70.707 E7.61054
G1 X30.293 Y70.973 E7.62493
G1 X30.628 Y71.144 E7.63933
G1 X30.984 Y71.2 E7.65312
G1 X77.016 Y71.2 E9.41476
G1 X77.372 Y71.144 E9.42855
G1 X77.707 Y70.973 E9.44295
G1 X77.973 Y70.707 E9.45734
G1 X78.144 Y70.372 E9.47174
G1 X78.2 Y70.016 E9.48553
G1 X78.2 Y59.157 E9.9011
G1 X78.244 Y58.748 E9.91684
G1 X78.356 Y58.529 E9.92626
G1 X78.529 Y58.356 E9.93562
G1 X78.748 Y58.244 E9.94503
G1 X79.172 Y58.2 E9.96135
G1 X91.8 Y58.2 E10.44462
G1 X91.8 Y59.8 E10.50585
G1 X81.257 Y59.8 E10.90933
G1 X80.809 Y59.813 E10.92648
G1 X80.454 Y59.929 E10.94078
G1 X80.15 Y60.15 E10.95516
G1 X79.929 Y60.454 E10.96954
G1 X79.812 Y60.812 E10.98396
G1 X79.8 Y71.843 E11.40611
G1 X79.756 Y72.252 E11.42186
G1 X79.644 Y72.471 E11.43127
G1 X79.471 Y72.644 E11.44063
G1 X79.248 Y72.758 E11.45022
G1 X78.982 Y72.8 E11.46052
G1 X29.018 Y72.8 E13.37264
G1 X28.752 Y72.758 E13.38295
G1 X28.529 Y72.644 E13.39253
G1 X28.356 Y72.471 E13.4019
G1 X28.242 Y72.248 E13.41148
G1 X28.2 Y71.982 E13.42179
G1 X28.2 Y47.2 E14.37019
G1 X29.8 Y47.2 E14.43142
G1 X29.8 Y69.682 E15.29181
G0 F972 X29.8 Y70.016
G0 X29.856 Y70.372
G0 F4320 X29.946 Y70.55
G0 X29.483 Y71.102
;TYPE:SKIN
G1 F1080 X29.898 Y71.517 E15.31427
G1 X30.419 Y71.785 E15.33669
G1 X30.932 Y71.865 E15.35656
G1 X77.068 Y71.865 E17.12218
G1 X77.581 Y71.785 E17.14205
G1 X78.102 Y71.517 E17.16448
G1 X78.517 Y71.102 E17.18694
G1 X78.785 Y70.581 E17.20936
G1 X78.865 Y70.068 E17.22923
G1 X78.865 Y59.192 E17.64545
G1 X78.899 Y58.928 E17.65564
G1 X78.94 Y58.893 E17.6577
G1 X79.203 Y58.865 E17.66782
G1 X91.135 Y58.865 E18.12446
G1 X91.135 Y59.135 E18.13479
G1 X81.248 Y59.135 E18.51317
G1 X80.695 Y59.151 E18.53434
G1 X80.147 Y59.329 E18.55639
G1 X79.674 Y59.674 E18.5788
G1 X79.329 Y60.147 E18.6012
G1 X79.147 Y60.706 E18.6237
G1 X79.135 Y71.807 E19.04853
G1 X79.101 Y72.072 E19.05876
G1 X79.073 Y72.1 E19.06027
G1 X79.038 Y72.117 E19.06176
G1 X78.928 Y72.135 E19.06603
G1 X29.072 Y72.135 E20.97402
G1 X28.962 Y72.117 E20.97828
G1 X28.927 Y72.1 E20.97977
G1 X28.9 Y72.073 E20.98123
G1 X28.883 Y72.038 E20.98272
G1 X28.865 Y71.928 E20.98699
G1 X28.865 Y47.865 E21.90788
G1 X29.135 Y47.865 E21.91821
G1 X29.135 Y70.068 E22.76792
G1 X29.199 Y70.474 E22.78365
G0 F972 X29.215 Y70.581
G0 X29.483 Y71.102
G0 F4320 X29.409 Y71.977
G1 F1080 X29.021 Y71.589 E22.80465
G0 F4320 X29.021 Y71.094
G1 F1080 X29.904 Y71.977 E22.85243
G0 F4320 X30.346 Y71.924
G1 F1080 X30.399 Y71.977 E22.8553
G0 F4320 X30.399 Y72.39
G0 X28.899 Y72.304
G0 X28.682 Y47.682
G0 X29.46 Y70.502
G0 X29.076 Y70.654
G1 F1080 X29.021 Y70.599 E22.85828
M104 S205
G0 F4320 X28.61 Y70.599
G0 X28.682 Y47.682
G0 X29.447 Y70.613
G0 X30.166 Y71.148
G0 X77.605 Y71.485
G0 X77.792 Y71.852
G1 F1080 X77.917 Y71.977 E22.86505
G0 F4320 X78.119 Y71.684
G1 F1080 X78.412 Y71.977 E22.8809
G0 F4320 X78.907 Y71.977
G1 F1080 X78.384 Y71.454 E22.90921
G0 F4320 X78.631 Y71.207
G1 F1080 X78.977 Y71.552 E22.92791
G0 F4320 X78.978 Y71.058
G1 F1080 X78.804 Y70.884 E22.93732
G0 F4320 X78.439 Y70.697
G0 X78.703 Y58.885
G0 X91.318 Y58.682
G0 X80.237 Y59.504
G0 X79.504 Y60.432
G0 X79.112 Y60.303
G1 F1080 X79.021 Y60.212 E22.94225
G0 F4320 X79.268 Y59.964
G1 F1080 X79.021 Y59.717 E22.95562
G0 F4320 X79.477 Y59.678
G1 F1080 X79.021 Y59.222 E22.9803
G0 F4320 X79.316 Y59.022
G1 F1080 X79.731 Y59.437 E23.00276
G0 F4320 X80.017 Y59.228
G1 F1080 X79.811 Y59.022 E23.01391
G0 F4320 X80.306 Y59.022
G1 F1080 X80.373 Y59.089 E23.01753
;MESH:NONMESH
G0 F600 X80.373 Y59.089 Z0.482
G0 F4320 X80.501 Y59.482
G0 X91.318 Y59.318
G0 X78.885 Y58.703
G0 X78.414 Y70.033
G0 X78.148 Y70.834
G0 X77.439 Y71.351
G0 X30.967 Y71.414
G0 X30.242 Y71.188
G0 X29.543 Y70.474
;TIME_ELAPSED:65.581582
;LAYER:1
M140 S55
M106 S204
;TYPE:WALL-INNER
;MESH:head_to_body_mount_servo_pot.STL
G1 F1440 X29.761 Y70.9 E23.03278
G1 X30.1 Y71.239 E23.04806
G1 X30.526 Y71.457 E23.06331
G1 X30.959 Y71.525 E23.07728
G1 X77.041 Y71.525 E24.54579
G1 X77.474 Y71.457 E24.55976
G1 X77.9 Y71.239 E24.57501
G1 X78.239 Y70.9 E24.59029
G1 X78.457 Y70.474 E24.60554
G1 X78.525 Y70.041 E24.6195
G1 X78.525 Y59.42 E24.95797
G1 X78.534 Y58.935 E24.97343
G1 X78.581 Y58.79 E24.97828
G1 X78.668 Y58.67 E24.98301
G1 X78.789 Y58.583 E24.98776
G1 X78.934 Y58.535 E24.99262
G1 X79.366 Y58.525 E25.00639
G1 X91.475 Y58.525 E25.39227
G1 X91.475 Y59.475 E25.42255
G1 X81.207 Y59.475 E25.74976
G1 X80.752 Y59.49 E25.76427
G1 X80.304 Y59.636 E25.77929
G1 X79.917 Y59.917 E25.79453
G1 X79.636 Y60.304 E25.80977
G1 X79.487 Y60.76 E25.82506
G1 X79.475 Y71.58 E26.16986
G1 X79.466 Y72.065 E26.18532
G1 X79.419 Y72.21 E26.19018
G1 X79.332 Y72.33 E26.1949
G1 X79.21 Y72.418 E26.19969
G1 X79.073 Y72.463 E26.20429
G1 X29.044 Y72.475 E27.79858
G1 X28.853 Y72.445 E27.80474
G1 X28.724 Y72.379 E27.80936
G1 X28.621 Y72.276 E27.814
G1 X28.555 Y72.147 E27.81862
G1 X28.525 Y71.956 E27.82478
G1 X28.525 Y47.525 E28.60333
G1 X29.475 Y47.525 E28.63361
G1 X29.475 Y69.645 E29.33851
G0 F1296 X29.475 Y70.041
G0 X29.543 Y70.474
G0 F5760 X29.856 Y70.372
;TYPE:WALL-OUTER
G1 F1215 X30.027 Y70.707 E29.3505
G1 X30.293 Y70.973 E29.36249
G1 X30.628 Y71.144 E29.37447
G1 X30.984 Y71.2 E29.38596
G1 X77.016 Y71.2 E30.85288
G1 X77.372 Y71.144 E30.86436
G1 X77.707 Y70.973 E30.87635
G1 X77.973 Y70.707 E30.88833
G1 X78.144 Y70.372 E30.90032
G1 X78.2 Y70.016 E30.9118
G1 X78.2 Y59.414 E31.24966
G1 X78.21 Y58.883 E31.26659
G1 X78.288 Y58.64 E31.27472
G1 X78.436 Y58.436 E31.28275
G1 X78.64 Y58.289 E31.29076
G1 X78.877 Y58.211 E31.29871
G1 X79.359 Y58.2 E31.31408
G1 X91.8 Y58.2 E31.71054
G1 X91.8 Y59.8 E31.76153
G1 X81.212 Y59.8 E32.09894
G1 X80.809 Y59.813 E32.11179
G1 X80.454 Y59.929 E32.12369
G1 X80.15 Y60.15 E32.13567
G1 X79.929 Y60.454 E32.14765
G1 X79.812 Y60.812 E32.15965
G1 X79.8 Y71.586 E32.50299
G1 X79.79 Y72.117 E32.51991
G1 X79.712 Y72.36 E32.52804
G1 X79.564 Y72.564 E32.53608
G1 X79.36 Y72.711 E32.54409
G1 X79.125 Y72.788 E32.55197
G1 X29.018 Y72.8 E34.14875
G1 X28.752 Y72.758 E34.15733
G1 X28.529 Y72.644 E34.16531
G1 X28.356 Y72.471 E34.17311
G1 X28.242 Y72.248 E34.18109
G1 X28.2 Y71.982 E34.18967
G1 X28.2 Y47.2 E34.97941
G1 X29.8 Y47.2 E35.03039
G1 X29.8 Y69.542 E35.74238
G0 F1093.5 X29.8 Y70.016
G0 X29.856 Y70.372
G0 F5760 X29.946 Y70.55
G0 X29.483 Y71.102
;TYPE:SKIN
G1 F900 X29.898 Y71.517 E35.76108
G1 X30.419 Y71.785 E35.77975
G1 X30.932 Y71.865 E35.79629
G1 X77.068 Y71.865 E37.26653
G1 X77.581 Y71.785 E37.28307
G1 X78.102 Y71.517 E37.30174
G1 X78.517 Y71.102 E37.32045
G1 X78.785 Y70.581 E37.33912
G1 X78.865 Y70.068 E37.35566
G1 X78.865 Y59.426 E37.6948
G1 X78.874 Y58.991 E37.70866
G1 X78.887 Y58.948 E37.71009
G1 X78.912 Y58.913 E37.71146
G1 X78.945 Y58.889 E37.71276
G1 X78.992 Y58.873 E37.71435
G1 X79.374 Y58.865 E37.72652
G1 X91.135 Y58.865 E38.10131
G1 X91.135 Y59.135 E38.10992
G1 X81.201 Y59.135 E38.42649
G1 X80.692 Y59.152 E38.44272
G1 X80.148 Y59.329 E38.46095
G1 X79.674 Y59.674 E38.47963
G1 X79.329 Y60.147 E38.49829
G1 X79.147 Y60.706 E38.51702
G1 X79.135 Y71.574 E38.86336
G1 X79.126 Y72.009 E38.87722
G1 X79.113 Y72.05 E38.87859
G1 X79.085 Y72.089 E38.88012
G1 X79.056 Y72.11 E38.88126
G1 X79.017 Y72.123 E38.88257
G1 X29.072 Y72.135 E40.47419
G1 X28.962 Y72.117 E40.47774
G1 X28.927 Y72.1 E40.47898
G1 X28.899 Y72.072 E40.48024
G1 X28.882 Y72.037 E40.48148
G1 X28.865 Y71.928 E40.485
G1 X28.865 Y47.865 E41.25182
G1 X29.135 Y47.865 E41.26043
G1 X29.135 Y70.068 E41.96798
G1 X29.177 Y70.335 E41.97659
G0 F810 X29.215 Y70.581
G0 X29.483 Y71.102
G0 F5760 X29.162 Y70.822
G1 F900 X29.022 Y70.962 E41.9829
G0 F5760 X29.33 Y71.149
G1 F900 X29.022 Y71.457 E41.99678
G0 F5760 X29.027 Y71.947
G1 F900 X29.567 Y71.407 E42.02112
G0 F5760 X29.818 Y71.651
G1 F900 X29.492 Y71.977 E42.03581
G0 F5760 X29.987 Y71.977
G1 F900 X30.145 Y71.819 E42.04293
G0 F5760 X30.332 Y71.454
G0 X77.52 Y71.597
G0 X78.597 Y70.52
G0 X78.713 Y58.858
G0 X91.318 Y58.682
G0 X80.237 Y59.504
G0 X79.341 Y60.736
G0 X79.321 Y72.04
G0 X78.011 Y72.379
G0 X78.011 Y71.965
G1 F900 X78.977 Y70.999 E42.08647
G0 F5760 X78.977 Y71.494
G1 F900 X78.506 Y71.965 E42.10769
G0 F5760 X78.506 Y72.379
G0 X79.321 Y72.04
G0 X79.504 Y60.237
G0 X80.726 Y59.345
G0 X91.318 Y59.318
G0 X78.961 Y58.68
G0 X78.61 Y60.066
G0 X79.021 Y60.066
G1 F900 X80.065 Y59.022 E42.15474
G0 F5760 X79.57 Y59.022
G1 F900 X79.021 Y59.571 E42.17948
G1 X78.959 Y59.633
;MESH:NONMESH
G0 F600 X78.959 Y59.633 Z0.701
G0 F5760 X78.61 Y59.633
G0 X78.414 Y70.033
G0 X78.148 Y70.834
G0 X77.439 Y71.351
G0 X30.967 Y71.414
G0 X30.166 Y71.148
G0 X29.649 Y70.439
G0 X29.318 Y47.682
G0 X28.61 Y48.465
G0 X28.664 Y48.465
;TIME_ELAPSED:101.491083
;LAYER:2
;TYPE:FILL
;MESH:head_to_body_mount_servo_pot.STL
G1 F1800 X29.335 Y49.135 E42.2097
G1 X29.397 Y49.197
G0 F7200 X29.335 Y51.063
G1 F1800 X28.664 Y51.733 E42.23992
G1 X28.602 Y51.795
G0 F7200 X28.664 Y55.065
G1 F1800 X29.335 Y55.735 E42.27014
G1 X29.397 Y55.797
G0 F7200 X29.335 Y57.663
G1 F1800 X28.664 Y58.333 E42.30035
G1 X28.602 Y58.395
G0 F7200 X28.664 Y61.665
G1 F1800 X29.335 Y62.335 E42.33057
G1 X29.397 Y62.397
G0 F7200 X29.335 Y64.263
G1 F1800 X28.664 Y64.933 E42.36079
G1 X28.602 Y64.995
G0 F7200 X28.664 Y68.265
G1 F1800 X29.335 Y68.935 E42.39101
G1 X29.397 Y68.997
G0 F7200 X29.5 Y70.697
G1 F1800 X28.664 Y71.533 E42.42868
G1 X28.602 Y71.595
G0 F7200 X32.063 Y71.664
G1 F1800 X32.733 Y72.334 E42.45888
G1 X32.795 Y72.396
G0 F7200 X34.463 Y72.334
G1 F1800 X35.134 Y71.664 E42.4891
G1 X35.196 Y71.602
G0 F7200 X38.663 Y71.664
G1 F1800 X39.333 Y72.334 E42.51929
G1 X39.395 Y72.396
G0 F7200 X41.063 Y72.334
G1 F1800 X41.734 Y71.664 E42.54951
G1 X41.796 Y71.602
G0 F7200 X45.264 Y71.664
G1 F1800 X45.933 Y72.334 E42.57968
G1 X45.995 Y72.396
G0 F7200 X47.663 Y72.334
G1 F1800 X48.334 Y71.664 E42.6099
G1 X48.396 Y71.602
G0 F7200 X51.864 Y71.664
G1 F1800 X52.533 Y72.334 E42.64007
G1 X52.595 Y72.396
G0 F7200 X54.264 Y72.334
G1 F1800 X54.934 Y71.664 E42.67027
G1 X54.996 Y71.602
G0 F7200 X58.464 Y71.664
G1 F1800 X59.133 Y72.334 E42.70044
G1 X59.195 Y72.396
G0 F7200 X60.864 Y72.334
G1 F1800 X61.534 Y71.664 E42.73063
G1 X61.596 Y71.602
G0 F7200 X65.064 Y71.664
G1 F1800 X65.734 Y72.334 E42.76083
G1 X65.796 Y72.396
G0 F7200 X67.464 Y72.334
G1 F1800 X68.134 Y71.664 E42.79102
G1 X68.196 Y71.602
G0 F7200 X71.664 Y71.664
G1 F1800 X72.334 Y72.334 E42.82122
G1 X72.396 Y72.396
G0 F7200 X74.064 Y72.334
G1 F1800 X74.734 Y71.664 E42.85141
G1 X74.796 Y71.602
G0 F7200 X77.963 Y71.363
G1 F1800 X78.934 Y72.334 E42.89518
G1 X78.996 Y72.396
G0 F7200 X78.664 Y67.735
G1 F1800 X79.338 Y67.06 E42.92557
G1 X79.4 Y66.998
G0 F7200 X79.34 Y66.139
G1 F1800 X78.664 Y65.463 E42.95604
G1 X78.602 Y65.401
G0 F7200 X78.664 Y61.135
G1 F1800 X79.482 Y60.316 E42.99293
G0 F7200 X79.732 Y59.932
G1 F1800 X78.691 Y58.89 E43.03986
G1 X78.629 Y58.828
G0 F7200 X80.315 Y59.483
G1 F1800 X81.134 Y58.665 E43.07675
G1 X81.196 Y58.603
G0 F7200 X85.065 Y58.665
G1 F1800 X85.735 Y59.334 E43.10692
G1 X85.797 Y59.396
G0 F7200 X87.063 Y59.335
G1 F1800 X87.734 Y58.665 E43.13714
G1 X87.796 Y58.603
G0 F7200 X80.305 Y59.634
;TYPE:WALL-INNER
G1 F1800 X79.917 Y59.918 E43.15246
G1 X79.636 Y60.304 E43.16768
G1 X79.487 Y60.76 E43.18297
G1 X79.475 Y71.955 E43.53972
G1 X79.445 Y72.147 E43.54591
G1 X79.379 Y72.276 E43.55053
G1 X79.276 Y72.379 E43.55517
G1 X79.147 Y72.445 E43.55979
G1 X78.956 Y72.475 E43.56595
G1 X29.044 Y72.475 E45.15652
G1 X28.853 Y72.445 E45.16268
G1 X28.724 Y72.379 E45.1673
G1 X28.621 Y72.276 E45.17194
G1 X28.555 Y72.147 E45.17656
G1 X28.525 Y71.956 E45.18272
G1 X28.525 Y47.525 E45.96127
G1 X29.475 Y47.525 E45.99154
G1 X29.475 Y70.041 E46.70907
G1 X29.543 Y70.474 E46.72304
G1 X29.761 Y70.9 E46.73829
G1 X30.1 Y71.239 E46.75356
G1 X30.526 Y71.457 E46.76881
G1 X30.959 Y71.525 E46.78278
G1 X77.041 Y71.525 E48.25129
G1 X77.474 Y71.457 E48.26526
G1 X77.9 Y71.239 E48.28051
G1 X78.239 Y70.9 E48.29579
G1 X78.457 Y70.474 E48.31104
G1 X78.525 Y70.041 E48.32501
G1 X78.525 Y59.044 E48.67545
G1 X78.555 Y58.853 E48.68161
G1 X78.621 Y58.724 E48.68623
G1 X78.724 Y58.621 E48.69087
G1 X78.853 Y58.555 E48.69549
G1 X79.044 Y58.525 E48.70165
G1 X91.475 Y58.525 E49.09779
G1 X91.475 Y59.475 E49.12807
G1 X81.466 Y59.475 E49.44703
G1 X81.117 Y59.481 E49.45815
G0 F1620 X80.768 Y59.487
G0 X80.305 Y59.634
G0 F7200 X80.454 Y59.928
;TYPE:WALL-OUTER
G1 F1350 X80.15 Y60.15 E49.47015
G1 X79.929 Y60.454 E49.48213
G1 X79.812 Y60.812 E49.49413
G1 X79.8 Y71.981 E49.85005
G1 X79.758 Y72.248 E49.85867
G1 X79.644 Y72.471 E49.86665
G1 X79.471 Y72.644 E49.87445
G1 X79.248 Y72.758 E49.88243
G1 X78.982 Y72.8 E49.89101
G1 X29.018 Y72.8 E51.48323
G1 X28.752 Y72.758 E51.49181
G1 X28.529 Y72.644 E51.49979
G1 X28.356 Y72.471 E51.50759
G1 X28.242 Y72.248 E51.51557
G1 X28.2 Y71.982 E51.52415
G1 X28.2 Y47.2 E52.31389
G1 X29.8 Y47.2 E52.36488
G1 X29.8 Y70.016 E53.09196
G1 X29.856 Y70.372 E53.10345
G1 X30.027 Y70.707 E53.11543
G1 X30.293 Y70.973 E53.12742
G1 X30.628 Y71.144 E53.13941
G1 X30.984 Y71.2 E53.15089
G1 X77.016 Y71.2 E54.61781
G1 X77.372 Y71.144 E54.62929
G1 X77.707 Y70.973 E54.64128
G1 X77.973 Y70.707 E54.65327
G1 X78.144 Y70.372 E54.66525
G1 X78.2 Y70.016 E54.67674
G1 X78.2 Y59.018 E55.02722
G1 X78.242 Y58.752 E55.0358
G1 X78.356 Y58.529 E55.04378
G1 X78.529 Y58.356 E55.05158
G1 X78.752 Y58.242 E55.05956
G1 X79.018 Y58.2 E55.06814
G1 X91.8 Y58.2 E55.47547
G1 X91.8 Y59.8 E55.52645
G1 X81.469 Y59.8 E55.85568
G1 X81.27 Y59.804 E55.86202
G0 F1215 X80.821 Y59.811
G0 X80.454 Y59.928
G0 F7200 X80.293 Y60.046
G0 X79.985 Y59.621
;MESH:NONMESH
