;FLAVOR:Marlin
;TIME:2861
;Filament used: 1.63515m
;Layer height: 0.21875
;MINX:36.7
;MINY:39.847
;MINZ:0.263
;MAXX:84.155
;MAXY:79.3
;MAXZ:16.907
;Generated with Cura_SteamEngine 4.5.0
M140 S60
M105
M190 S60
M104 S210
M105
M109 S210
M82 ;absolute extrusion mode
G21;(metric values)
G90;(absolute positioning)
M82;(set extruder to absolute mode)
M107;(start with the fan off)
G28;(Home the printer)
G92 E0;(Reset the extruder to 0)
G0 Z5 E5 F500;(Move up and prime the nozzle)
G0 X-1 Z0;(Move outside the printable area)
G1 Y60 E8 F500;(Draw a priming/wiping line to the rear)
G1 X-1;(Move a little closer to the print area)
G1 Y10 E16 F500;(draw more priming/wiping)
G1 E15 F250;(Small retract)
G92 E0;(Zero the extruder)
G92 E0
G92 E0
G1 F2400 E-2.5
;LAYER_COUNT:77
;LAYER:0
M107
;MESH:head_servo_pot_house.STL
G0 F4320 X80.962 Y45.963 Z0.263
;TYPE:WALL-INNER
G1 F2400 E0
G1 F1080 X81.025 Y45.417 E0.02103
G1 X81.028 Y41.025 E0.18912
G1 X82.975 Y41.025 E0.26363
G1 X82.975 Y54.975 E0.79749
G1 X81.025 Y54.975 E0.87212
G1 X81.025 Y50.567 E1.04081
G1 X80.961 Y50.036 E1.06128
G1 X80.739 Y49.6 E1.08001
G1 X80.4 Y49.261 E1.09835
G1 X79.974 Y49.043 E1.11667
G1 X79.541 Y48.975 E1.13344
G1 X74.521 Y48.975 E1.32556
G1 X73.955 Y49.016 E1.34727
G1 X73.41 Y49.146 E1.36872
G1 X72.899 Y49.358 E1.38989
G1 X72.427 Y49.647 E1.41107
G1 X72.006 Y50.006 E1.43224
G1 X71.647 Y50.427 E1.45342
G1 X71.358 Y50.899 E1.4746
G1 X71.146 Y51.41 E1.49577
G1 X71.017 Y51.949 E1.51698
G1 X70.975 Y52.479 E1.53733
G1 X70.975 Y78.281 E2.52477
G1 X70.966 Y78.564 E2.5356
G1 X70.918 Y78.71 E2.54148
G1 X70.83 Y78.832 E2.54724
G1 X70.712 Y78.918 E2.55283
G1 X70.569 Y78.963 E2.55857
G1 X68.947 Y78.975 E2.62064
G1 X39.782 Y78.975 E3.73678
G1 X39.105 Y78.941 E3.76273
G1 X38.735 Y78.852 E3.77729
G1 X38.378 Y78.705 E3.79207
G1 X38.047 Y78.502 E3.80692
G1 X37.751 Y78.249 E3.82183
G1 X37.498 Y77.953 E3.83673
G1 X37.295 Y77.622 E3.85159
G1 X37.148 Y77.265 E3.86636
G1 X37.057 Y76.887 E3.88124
G1 X37.025 Y76.487 E3.8966
G1 X37.025 Y49.737 E4.92032
G1 X37.059 Y49.106 E4.9445
G1 X37.148 Y48.735 E4.95911
G1 X37.295 Y48.378 E4.97388
G1 X37.498 Y48.047 E4.98874
G1 X37.751 Y47.751 E5.00364
G1 X38.047 Y47.498 E5.01854
G1 X38.378 Y47.295 E5.0334
G1 X38.735 Y47.148 E5.04818
G1 X39.107 Y47.058 E5.06283
G1 X39.605 Y47.025 E5.08193
G1 X79.541 Y47.025 E6.61028
G1 X79.974 Y46.957 E6.62705
G1 X80.4 Y46.739 E6.64536
G1 X80.595 Y46.544 E6.65592
G0 F972 X80.739 Y46.4
G0 X80.962 Y45.963
G1 F2400 E4.15592
G0 F4320 X81.185 Y41.182
G0 X82.818 Y41.182
G0 X82.818 Y54.818
G0 X81.182 Y54.818
G0 X80.859 Y49.513
G0 X79.919 Y49.145
G0 X73.972 Y49.125
G0 X72.949 Y49.457
G0 X72.085 Y50.085
G0 X71.457 Y50.949
G0 X71.127 Y51.967
G0 X70.79 Y77.025
G0 X72.165 Y77.025
G0 X62.847 Y75.847
G0 X64.19 Y77.025
G0 X64.025 Y77.025
G1 F2400 E6.65592
G1 F1080 X64.025 Y52.479 E7.59529
G1 X63.983 Y51.949 E7.61564
G1 X63.854 Y51.41 E7.63685
G1 X63.642 Y50.899 E7.65802
G1 X63.353 Y50.427 E7.6792
G1 X62.994 Y50.006 E7.70037
G1 X62.573 Y49.647 E7.72155
G1 X62.101 Y49.358 E7.74273
G1 X61.59 Y49.146 E7.7639
G1 X61.045 Y49.015 E7.78535
G1 X60.322 Y48.975 E7.81306
G1 X39.44 Y48.975 E8.61222
G1 X38.953 Y48.99 E8.63086
G1 X38.504 Y49.136 E8.64893
G1 X38.117 Y49.417 E8.66723
G1 X37.836 Y49.804 E8.68554
G1 X37.687 Y50.26 E8.7039
G1 X37.675 Y75.314 E9.66271
G1 X37.69 Y75.748 E9.67933
G1 X37.836 Y76.196 E9.69736
G1 X38.117 Y76.583 E9.71567
G1 X38.504 Y76.864 E9.73397
G1 X38.959 Y77.013 E9.75229
G1 X40.613 Y77.025 E9.81559
G1 X63.331 Y77.025 E10.68501
G0 F972 X64.025 Y77.025
G0 F4320 X63.7 Y76.7
;TYPE:WALL-OUTER
G1 F1080 X63.7 Y52.492 E11.61145
G1 X63.661 Y52 E11.63034
G1 X63.544 Y51.511 E11.64958
G1 X63.352 Y51.047 E11.66879
G1 X63.089 Y50.619 E11.68802
G1 X62.763 Y50.237 E11.70724
G1 X62.381 Y49.911 E11.72646
G1 X61.953 Y49.648 E11.74568
G1 X61.489 Y49.456 E11.7649
G1 X60.998 Y49.338 E11.78423
G1 X60.313 Y49.3 E11.81048
G1 X39.445 Y49.3 E12.6091
G1 X39.009 Y49.313 E12.62579
G1 X38.654 Y49.429 E12.64008
G1 X38.35 Y49.65 E12.65447
G1 X38.129 Y49.954 E12.66885
G1 X38.012 Y50.312 E12.68326
G1 X38 Y75.309 E13.6399
G1 X38.013 Y75.691 E13.65453
G1 X38.129 Y76.046 E13.66882
G1 X38.35 Y76.35 E13.6832
G1 X38.654 Y76.571 E13.69759
G1 X39.012 Y76.688 E13.712
G1 X40.614 Y76.7 E13.77331
G1 X63.006 Y76.7 E14.63025
G0 F972 X63.7 Y76.7
G0 F4320 X63.7 Y76.5
G1 F2400 E12.13025
G0 F4320 X63.975 Y76.5
G0 X64.191 Y52.472
G0 X62.805 Y52.137
G0 X64.191 Y45.835
G0 X64.191 Y47.21
G0 X76.384 Y46.904
G0 X79.533 Y46.914
G0 X80.334 Y46.648
G0 X80.918 Y45.9
G0 X80.646 Y45.868
G1 F2400 E14.63025
G1 F1080 X80.7 Y45.398 E14.64836
G1 X80.703 Y40.7 E14.82815
G1 X83.3 Y40.7 E14.92753
G1 X83.3 Y55.248 E15.48429
G1 X83.295 Y55.3 E15.48628
G1 X80.7 Y55.3 E15.5856
G1 X80.7 Y50.587 E15.76596
G1 X80.645 Y50.132 E15.7835
G1 X80.473 Y49.793 E15.79805
G1 X80.207 Y49.527 E15.81245
G1 X79.872 Y49.356 E15.82684
G1 X79.516 Y49.3 E15.84063
G1 X74.533 Y49.3 E16.03133
G1 X74.005 Y49.338 E16.05159
G1 X73.511 Y49.456 E16.07103
G1 X73.047 Y49.648 E16.09024
G1 X72.619 Y49.911 E16.10947
G1 X72.237 Y50.237 E16.12869
G1 X71.911 Y50.619 E16.14791
G1 X71.648 Y51.047 E16.16713
G1 X71.456 Y51.511 E16.18635
G1 X71.339 Y52 E16.20559
G1 X71.3 Y52.492 E16.22448
G1 X71.3 Y78.292 E17.21184
G1 X71.289 Y78.621 E17.22444
G1 X71.211 Y78.86 E17.23406
G1 X71.064 Y79.064 E17.24369
G1 X70.86 Y79.212 E17.25333
G1 X70.622 Y79.288 E17.26289
G1 X68.949 Y79.3 E17.32692
G1 X39.766 Y79.3 E18.44375
G1 X39.061 Y79.265 E18.47076
G1 X38.637 Y79.163 E18.48745
G1 X38.228 Y78.994 E18.50439
G1 X37.856 Y78.766 E18.52109
G1 X37.521 Y78.479 E18.53797
G1 X37.234 Y78.144 E18.55485
G1 X37.006 Y77.772 E18.57155
G1 X36.837 Y77.363 E18.58848
G1 X36.735 Y76.938 E18.60521
G1 X36.7 Y76.5 E18.62203
G1 X36.7 Y49.72 E19.6469
G1 X36.735 Y49.061 E19.67215
G1 X36.837 Y48.637 E19.68884
G1 X37.006 Y48.228 E19.70578
G1 X37.234 Y47.856 E19.72247
G1 X37.521 Y47.521 E19.73936
G1 X37.856 Y47.234 E19.75624
G1 X38.228 Y47.006 E19.77294
G1 X38.637 Y46.837 E19.78987
G1 X39.056 Y46.736 E19.80637
G1 X39.598 Y46.7 E19.82715
G1 X79.516 Y46.7 E21.35481
G1 X79.872 Y46.644 E21.36861
G1 X80.207 Y46.473 E21.383
G1 X80.251 Y46.429 E21.38538
G0 F972 X80.473 Y46.207
G0 X80.646 Y45.868
G0 F4320 X80.668 Y45.67
G0 X81.365 Y45.437
;TYPE:SKIN
G1 F1080 X81.368 Y41.365 E21.54122
G1 X82.635 Y41.365 E21.5897
G1 X82.635 Y54.635 E22.09755
G1 X81.365 Y54.635 E22.14615
G1 X81.365 Y50.546 E22.30264
G1 X81.291 Y49.935 E22.32619
G1 X81.017 Y49.398 E22.34926
G1 X80.602 Y48.983 E22.37172
G1 X80.081 Y48.715 E22.39414
G1 X79.568 Y48.635 E22.41401
G1 X74.509 Y48.635 E22.60762
G1 X73.903 Y48.678 E22.63087
G1 X73.305 Y48.822 E22.65441
G1 X72.744 Y49.055 E22.67766
G1 X72.227 Y49.371 E22.70085
G1 X71.765 Y49.765 E22.72408
G1 X71.371 Y50.227 E22.74732
G1 X71.055 Y50.744 E22.77051
G1 X70.822 Y51.305 E22.79376
G1 X70.681 Y51.896 E22.81701
G1 X70.635 Y52.465 E22.83886
G1 X70.635 Y78.27 E23.82641
G1 X70.628 Y78.504 E23.83537
G1 X70.61 Y78.556 E23.83748
G1 X70.585 Y78.591 E23.83912
G1 X70.561 Y78.608 E23.84025
G1 X70.514 Y78.623 E23.84214
G1 X68.945 Y78.635 E23.90218
G1 X39.799 Y78.635 E25.0176
G1 X39.149 Y78.603 E25.0425
G1 X38.848 Y78.53 E25.05436
G1 X38.528 Y78.398 E25.06761
G1 X38.251 Y78.228 E25.08004
G1 X37.992 Y78.008 E25.09305
G1 X37.772 Y77.749 E25.10605
G1 X37.602 Y77.472 E25.11849
G1 X37.469 Y77.151 E25.13179
G1 X37.393 Y76.831 E25.14438
G1 X37.365 Y76.487 E25.15758
G1 X37.365 Y75.848 E25.18204
G1 X37.529 Y76.352 E25.20232
G1 X37.874 Y76.826 E25.22476
G1 X38.347 Y77.171 E25.24716
G1 X38.903 Y77.353 E25.26955
G1 X40.611 Y77.365 E25.33492
G1 X64.365 Y77.365 E26.24398
G1 X64.365 Y52.465 E27.19691
G1 X64.319 Y51.896 E27.21875
G1 X64.178 Y51.305 E27.242
G1 X63.945 Y50.744 E27.26525
G1 X63.629 Y50.227 E27.28844
G1 X63.235 Y49.765 E27.31168
G1 X62.773 Y49.371 E27.33491
G1 X62.256 Y49.055 E27.3581
G1 X61.695 Y48.822 E27.38135
G1 X61.094 Y48.677 E27.40501
G1 X60.332 Y48.635 E27.43422
G1 X39.434 Y48.635 E28.23398
G1 X38.894 Y48.652 E28.25466
G1 X38.348 Y48.829 E28.27662
G1 X37.874 Y49.174 E28.29906
G1 X37.529 Y49.647 E28.32147
G1 X37.365 Y50.151 E28.34175
G1 X37.365 Y49.755 E28.3569
G1 X37.397 Y49.15 E28.38009
G1 X37.47 Y48.848 E28.39198
G1 X37.602 Y48.528 E28.40523
G1 X37.772 Y48.251 E28.41767
G1 X37.992 Y47.992 E28.43067
G1 X38.251 Y47.772 E28.44368
G1 X38.528 Y47.602 E28.45611
G1 X38.848 Y47.47 E28.46936
G1 X39.151 Y47.396 E28.4813
G1 X39.628 Y47.365 E28.49959
G1 X79.568 Y47.365 E30.02809
G1 X80.081 Y47.285 E30.04796
G1 X80.602 Y47.017 E30.07038
G1 X81.017 Y46.602 E30.09284
G1 X81.263 Y46.12 E30.11355
G0 F972 X81.292 Y46.063
G0 X81.365 Y45.437
G0 F4320 X81.111 Y45.423
G0 X81.185 Y41.182
G0 X82.818 Y41.182
G0 X82.89 Y41.889
G0 X82.477 Y41.889
G1 F1080 X82.109 Y41.522 E30.13344
G0 F4320 X81.614 Y41.522
G1 F1080 X82.477 Y42.384 E30.18012
G0 F4320 X82.477 Y42.879
G1 F1080 X81.523 Y41.925 E30.23176
G0 F4320 X81.523 Y42.42
G1 F1080 X82.477 Y43.374 E30.28339
G0 F4320 X82.477 Y43.869
G1 F1080 X81.523 Y42.915 E30.33502
G0 F4320 X81.523 Y43.409
G1 F1080 X82.477 Y44.364 E30.38668
G0 F4320 X82.477 Y44.859
G1 F1080 X81.522 Y43.904 E30.43837
G0 F4320 X81.522 Y44.399
G1 F1080 X82.477 Y45.354 E30.49005
G0 F4320 X82.477 Y45.849
G1 F1080 X81.521 Y44.893 E30.54179
G0 F4320 X81.521 Y45.388
G1 F1080 X82.477 Y46.344 E30.59353
G0 F4320 X82.477 Y46.839
G1 F1080 X81.474 Y45.836 E30.64782
G0 F4320 X81.378 Y46.235
G1 F1080 X82.477 Y47.334 E30.7073
G0 F4320 X82.477 Y47.829
G1 F1080 X81.211 Y46.563 E30.77582
G0 F4320 X80.996 Y46.842
G1 F1080 X82.477 Y48.324 E30.856
G0 F4320 X82.477 Y48.819
G1 F1080 X80.748 Y47.09 E30.94957
G0 F4320 X80.44 Y47.277
G1 F1080 X82.477 Y49.314 E31.05982
G0 F4320 X82.477 Y49.809
G1 F1080 X80.108 Y47.439 E31.18806
G0 F4320 X79.679 Y47.506
G1 F1080 X82.477 Y50.304 E31.3395
G0 F4320 X82.477 Y50.799
G1 F1080 X81.313 Y49.634 E31.40252
G0 F4320 X81.494 Y50.31
G1 F1080 X82.477 Y51.294 E31.45575
G0 F4320 X82.477 Y51.789
G1 F1080 X81.52 Y50.832 E31.50754
G0 F4320 X81.52 Y51.327
G1 F1080 X82.477 Y52.284 E31.55934
G0 F4320 X82.477 Y52.779
G1 F1080 X81.52 Y51.822 E31.61113
G0 F4320 X81.52 Y52.317
G1 F1080 X82.477 Y53.274 E31.66293
G0 F4320 X82.477 Y53.769
G1 F1080 X81.52 Y52.812 E31.71472
G0 F4320 X81.52 Y53.307
G1 F1080 X82.477 Y54.264 E31.76652
G0 F4320 X82.196 Y54.478
G1 F1080 X81.52 Y53.802 E31.8031
G0 F4320 X81.52 Y54.297
G1 F1080 X81.701 Y54.478 E31.8129
G0 F4320 X81.701 Y54.89
G0 X80.853 Y50.069
G0 X80.172 Y49.049
G0 X80.36 Y48.682
G1 F1080 X79.2 Y47.521 E31.87571
G0 F4320 X78.705 Y47.521
G1 F1080 X79.676 Y48.492 E31.92826
G0 F4320 X79.166 Y48.477
G1 F1080 X78.21 Y47.521 E31.98
G0 F4320 X77.715 Y47.521
G1 F1080 X78.671 Y48.477 E32.03174
G0 F4320 X78.176 Y48.477
G1 F1080 X77.22 Y47.521 E32.08348
G0 F4320 X76.725 Y47.521
G1 F1080 X77.681 Y48.477 E32.13522
G0 F4320 X77.186 Y48.477
G1 F1080 X76.23 Y47.521 E32.18696
G0 F4320 X75.735 Y47.521
G1 F1080 X76.691 Y48.477 E32.2387
G0 F4320 X76.196 Y48.477
G1 F1080 X75.24 Y47.521 E32.29044
G0 F4320 X74.745 Y47.521
G1 F1080 X75.701 Y48.477 E32.34218
G0 F4320 X75.206 Y48.477
G1 F1080 X74.25 Y47.521 E32.39393
G0 F4320 X73.755 Y47.521
G1 F1080 X74.711 Y48.477 E32.44567
G0 F4320 X74.234 Y48.496
G1 F1080 X73.26 Y47.521 E32.49841
G0 F4320 X72.765 Y47.521
G1 F1080 X73.787 Y48.543 E32.55372
G0 F4320 X73.387 Y48.639
G1 F1080 X72.27 Y47.521 E32.6142
G0 F4320 X71.775 Y47.521
G1 F1080 X73.022 Y48.769 E32.68172
G0 F4320 X72.672 Y48.914
G1 F1080 X71.28 Y47.521 E32.75708
G0 F4320 X70.785 Y47.521
G1 F1080 X72.365 Y49.101 E32.8426
G0 F4320 X72.068 Y49.299
G1 F1080 X70.29 Y47.521 E32.93882
G0 F4320 X69.795 Y47.521
G1 F1080 X71.801 Y49.527 E33.04739
G0 F4320 X71.552 Y49.773
G1 F1080 X69.3 Y47.521 E33.16928
G0 F4320 X68.805 Y47.521
G1 F1080 X71.323 Y50.039 E33.30555
G0 F4320 X71.121 Y50.332
G1 F1080 X68.31 Y47.521 E33.45769
G0 F4320 X67.815 Y47.521
G1 F1080 X70.934 Y50.64 E33.6265
G0 F4320 X70.784 Y50.985
G1 F1080 X67.32 Y47.521 E33.81398
G0 F4320 X66.825 Y47.521
G1 F1080 X70.65 Y51.346 E34.02099
G0 F4320 X70.555 Y51.746
G1 F1080 X66.33 Y47.521 E34.24966
G0 F4320 X65.835 Y47.521
G1 F1080 X70.499 Y52.185 E34.50208
G0 F4320 X70.478 Y52.658
G1 F1080 X65.34 Y47.521 E34.78013
G0 F4320 X64.845 Y47.521
G1 F1080 X70.478 Y53.153 E35.08497
G0 F4320 X70.478 Y53.648
G1 F1080 X64.35 Y47.521 E35.4166
G0 F4320 X63.855 Y47.521
G1 F1080 X70.478 Y54.143 E35.77503
G0 F4320 X70.478 Y54.638
G1 F1080 X63.361 Y47.521 E36.16021
G0 F4320 X62.866 Y47.521
G1 F1080 X70.478 Y55.133 E36.57219
G0 F4320 X70.478 Y55.628
G1 F1080 X62.371 Y47.521 E37.01095
G0 F4320 X61.876 Y47.521
G1 F1080 X70.478 Y56.123 E37.47651
G0 F4320 X70.478 Y56.618
G1 F1080 X61.381 Y47.521 E37.96886
G0 F4320 X60.886 Y47.521
G1 F1080 X62.245 Y48.881 E38.04244
G1 X62.307 Y48.943
G0 F4320 X61.475 Y48.606
G1 F1080 X60.391 Y47.521 E38.10113
G0 F4320 X59.896 Y47.521
G1 F1080 X60.881 Y48.507 E38.15447
G0 F4320 X60.358 Y48.479
G1 F1080 X59.401 Y47.521 E38.20629
G0 F4320 X58.906 Y47.521
G1 F1080 X59.862 Y48.477 E38.25803
G0 F4320 X59.367 Y48.477
G1 F1080 X58.411 Y47.521 E38.30977
G0 F4320 X57.916 Y47.521
G1 F1080 X58.872 Y48.477 E38.36151
G0 F4320 X58.377 Y48.477
G1 F1080 X57.421 Y47.521 E38.41325
G0 F4320 X56.926 Y47.521
G1 F1080 X57.882 Y48.477 E38.46499
G0 F4320 X57.387 Y48.477
G1 F1080 X56.431 Y47.521 E38.51673
G0 F4320 X55.936 Y47.521
G1 F1080 X56.892 Y48.477 E38.56847
G0 F4320 X56.397 Y48.477
G1 F1080 X55.441 Y47.521 E38.62021
G0 F4320 X54.946 Y47.521
G1 F1080 X55.902 Y48.477 E38.67195
G0 F4320 X55.407 Y48.477
G1 F1080 X54.451 Y47.521 E38.72369
G0 F4320 X53.956 Y47.521
G1 F1080 X54.912 Y48.477 E38.77544
G0 F4320 X54.417 Y48.477
G1 F1080 X53.461 Y47.521 E38.82718
G0 F4320 X52.966 Y47.521
G1 F1080 X53.922 Y48.477 E38.87892
G0 F4320 X53.427 Y48.477
G1 F1080 X52.471 Y47.521 E38.93066
G0 F4320 X51.976 Y47.521
G1 F1080 X52.932 Y48.477 E38.9824
G0 F4320 X52.437 Y48.477
G1 F1080 X51.481 Y47.521 E39.03414
G0 F4320 X50.986 Y47.521
G1 F1080 X51.942 Y48.477 E39.08588
G0 F4320 X51.447 Y48.477
G1 F1080 X50.491 Y47.521 E39.13762
G0 F4320 X49.996 Y47.521
G1 F1080 X50.952 Y48.477 E39.18936
G0 F4320 X50.457 Y48.477
G1 F1080 X49.501 Y47.521 E39.2411
G0 F4320 X49.006 Y47.521
G1 F1080 X49.962 Y48.477 E39.29284
G0 F4320 X49.467 Y48.477
G1 F1080 X48.511 Y47.521 E39.34458
G0 F4320 X48.016 Y47.521
G1 F1080 X48.972 Y48.477 E39.39632
G0 F4320 X48.477 Y48.477
G1 F1080 X47.521 Y47.521 E39.44806
G0 F4320 X47.026 Y47.521
G1 F1080 X47.982 Y48.477 E39.4998
G0 F4320 X47.487 Y48.477
G1 F1080 X46.531 Y47.521 E39.55154
G0 F4320 X46.036 Y47.521
G1 F1080 X46.992 Y48.477 E39.60328
G0 F4320 X46.497 Y48.477
G1 F1080 X45.541 Y47.521 E39.65502
G0 F4320 X45.046 Y47.521
G1 F1080 X46.002 Y48.477 E39.70676
G0 F4320 X45.507 Y48.477
G1 F1080 X44.551 Y47.521 E39.75851
G0 F4320 X44.056 Y47.521
G1 F1080 X45.012 Y48.477 E39.81025
G0 F4320 X44.517 Y48.477
G1 F1080 X43.562 Y47.521 E39.86196
G0 F4320 X43.067 Y47.521
G1 F1080 X44.022 Y48.477 E39.91367
G0 F4320 X43.527 Y48.477
G1 F1080 X42.572 Y47.521 E39.96539
G0 F4320 X42.077 Y47.521
G1 F1080 X43.032 Y48.477 E40.0171
G0 F4320 X42.537 Y48.477
G1 F1080 X41.582 Y47.521 E40.06881
G0 F4320 X41.087 Y47.521
G1 F1080 X42.042 Y48.477 E40.12053
G0 F4320 X41.547 Y48.477
G1 F1080 X40.592 Y47.521 E40.17224
G0 F4320 X40.097 Y47.521
G1 F1080 X41.052 Y48.477 E40.22395
G0 F4320 X40.557 Y48.477
G1 F1080 X39.604 Y47.523 E40.27556
G0 F4320 X39.144 Y47.558
G1 F1080 X40.062 Y48.477 E40.32527
G0 F4320 X39.567 Y48.477
G1 F1080 X38.765 Y47.674 E40.3687
G0 F4320 X38.436 Y47.841
G1 F1080 X39.083 Y48.487 E40.40369
G0 F4320 X38.661 Y48.561
G1 F1080 X38.156 Y48.056 E40.43102
G0 F4320 X37.92 Y48.315
